%
O1111
(** EgPost **)
T99
(*** CLEANUP  ***)
T01
(** B20 **)
G54G00
G80G91G40G28Z0
G49G28X0Y0M05
M06
T01
G90G00X0.Y0.
G43Z200.H01
M03S1000
G00X-16.315Y150.002
Z114.338 
G01Z113.338F105
X-15.881Z113.293
X-15.445Z113.267
X-15.009Z113.26
X-14.573Z113.272
X-14.138Z113.304
X-13.704Z113.354
X-13.274Z113.423
X-12.846Z113.511
X-12.423Z113.617
X-12.005Z113.742
X-11.593Z113.884
X-11.187Z114.045
X-10.789Z114.223
X-10.399Z114.419
X-10.018Z114.631
X-9.646Z114.86
X-9.285Z115.104
X-8.934Z115.364
X-8.596Z115.64
X-8.27Z115.929
X-7.956Z116.233
X-7.657Z116.55
X-7.371Z116.88
X-7.1Z117.222
X-6.663Z117.799F350
X-6.038Z118.619
X-5.413Z119.421
X-4.163Z120.985
X-2.913Z122.49
X-2.288Z123.227
X-1.038Z124.661
X-0.413Z125.357
X0.838Z126.723
X2.088Z128.046
X3.338Z129.326
X4.588Z130.566
X5.213Z131.172
X6.463Z132.359
X7.713Z133.511
X8.963Z134.63
X10.213Z135.716
X11.463Z136.771
X12.713Z137.796
X13.963Z138.792
X15.213Z139.76
X16.463Z140.701
X17.713Z141.615
X18.963Z142.504
X20.213Z143.368
X21.463Z144.208
X22.088Z144.619
X23.338Z145.425
X24.588Z146.208
X25.838Z146.97
X27.088Z147.709
X28.338Z148.426
X30.213Z149.465
X31.463Z150.133
X32.713Z150.781
X34.588Z151.715
X35.838Z152.316
X37.088Z152.9
X38.338Z153.462
X39.588Z154.007
X40.838Z154.535
X41.463Z154.796
X42.713Z155.297
X44.588Z156.02
X45.838Z156.482
X47.088Z156.925
X48.963Z157.563
X50.213Z157.967
X52.088Z158.545
X53.338Z158.91
X55.213Z159.43
X56.463Z159.758
X58.338Z160.221
X59.588Z160.512
X61.463Z160.92
X62.713Z161.175
X64.588Z161.529
X65.838Z161.748
X67.713Z162.048
X69.588Z162.316
X70.838Z162.48
X72.088Z162.628
X73.338Z162.761
X75.213Z162.937
X77.088Z163.083
X78.338Z163.161
X80.213Z163.256
X82.088Z163.318
X83.338Z163.344
X85.213Z163.355
X86.463Z163.346
X88.338Z163.307
X89.588Z163.263
X91.463Z163.174
X93.338Z163.051
X94.588Z162.955
X95.838Z162.843
X97.713Z162.651
X99.588Z162.426
X100.838Z162.26
X102.088Z162.077
X103.963Z161.781
X105.838Z161.451
X107.088Z161.214
X108.963Z160.831
X110.213Z160.558
X112.088Z160.119
X113.338Z159.809
X115.213Z159.315
X116.463Z158.968
X118.338Z158.416
X119.588Z158.031
X120.838Z157.628
X122.713Z156.996
X123.963Z156.554
X125.838Z155.859
X127.088Z155.378
X128.337Z154.876
X130.212Z154.094
X131.462Z153.552
X132.087Z153.271
X133.337Z152.702
X134.587Z152.114
X135.837Z151.509
X137.087Z150.882
X138.337Z150.237
X140.212Z149.234
X141.462Z148.541
X142.712Z147.825
X143.962Z147.088
X145.837Z145.944
X147.087Z145.154
X148.337Z144.342
X149.587Z143.505
X150.837Z142.644
X152.087Z141.759
X153.337Z140.848
X154.587Z139.911
X155.837Z138.947
X157.087Z137.956
X158.337Z136.935
X159.587Z135.886
X160.837Z134.805
X162.087Z133.693
X163.337Z132.547
X164.587Z131.366
X165.837Z130.148
X166.462Z129.525
X167.712Z128.252
X168.962Z126.939
X170.212Z125.58
X170.837Z124.884
X172.087Z123.46
X173.337Z121.985
X174.587Z120.457
X175.212Z119.677
X176.462Z118.063
X177.087Z117.238
X178.081Z115.89
X190.931Z98.172
X191.462Z97.45
X192.087Z96.609
X192.712Z95.786
X193.962Z94.185
X194.9Z93.024
X195.837Z91.896
X197.087Z90.436
X198.337Z89.028
X198.962Z88.342
X200.212Z87.001
X201.462Z85.704
X202.712Z84.451
X203.962Z83.237
X205.212Z82.06
X206.462Z80.919
X207.712Z79.813
X208.962Z78.739
X210.212Z77.698
X211.462Z76.687
X212.712Z75.706
X213.962Z74.753
X215.212Z73.828
X215.837Z73.377
X216.462Z72.93
X217.712Z72.058
X218.962Z71.21
X220.212Z70.39
X221.462Z69.593
X223.337Z68.441
X224.587Z67.7
X225.837Z66.981
X227.087Z66.286
X228.962Z65.281
X230.212Z64.635
X231.462Z64.012
X233.337Z63.112
X234.587Z62.534
X235.837Z61.978
X237.712Z61.176
X238.962Z60.665
X239.587Z60.418
X240.837Z59.931
X242.087Z59.462
X243.337Z59.014
X245.212Z58.368
X246.462Z57.961
X248.337Z57.378
X249.587Z57.012
X251.462Z56.489
X252.712Z56.162
X254.587Z55.698
X256.462Z55.272
X257.712Z55.004
X259.587Z54.634
X260.837Z54.405
X262.712Z54.09
X263.962Z53.899
X265.837Z53.638
X267.712Z53.413
X268.962Z53.278
X270.837Z53.106
X272.087Z53.008
X273.962Z52.889
X275.212Z52.828
X277.087Z52.761
X278.962Z52.728
X280.212Z52.724
X282.087Z52.742
X283.962Z52.795
X285.212Z52.846
X285.837Z52.88
X287.087Z52.952
X288.337Z53.04
X290.212Z53.198
X291.462Z53.323
X293.337Z53.534
X295.212Z53.781
X296.462Z53.962
X298.337Z54.262
X299.587Z54.482
X301.462Z54.837
X302.712Z55.094
X304.587Z55.505
X306.462Z55.954
X307.712Z56.271
X309.587Z56.778
X310.837Z57.134
X312.712Z57.701
X313.962Z58.097
X315.837Z58.726
X317.087Z59.163
X318.337Z59.621
X319.587Z60.096
X320.212Z60.337
X321.462Z60.837
X323.337Z61.62
X324.587Z62.165
X325.837Z62.73
X327.712Z63.61
X328.962Z64.221
X330.212Z64.854
X332.087Z65.837
X333.337Z66.519
X334.587Z67.224
X336.462Z68.321
X337.712Z69.079
X338.962Z69.86
X340.212Z70.667
X341.462Z71.497
X343.337Z72.79
X344.587Z73.682
X345.837Z74.602
X347.087Z75.55
X348.337Z76.526
X349.587Z77.532
X350.837Z78.568
X352.087Z79.636
X353.337Z80.738
X354.587Z81.874
X355.837Z83.046
X357.087Z84.256
X357.712Z84.874
X358.962Z86.142
X360.212Z87.45
X361.462Z88.806
X362.712Z90.209
X363.337Z90.927
X364.587Z92.403
X365.525Z93.546
X366.462Z94.723
X367.712Z96.343
X368.65Z97.6
X369.587Z98.895
X370.525Z100.232
X371.462Z101.613
X372.087Z102.56
X373.025Z104.019
X373.337Z104.519
X373.862Z105.368
X374.387Z106.238
X374.912Z107.121
X375.436Z108.028
Y145.002Z108.029
X374.912Z107.121
X374.387Z106.238
X373.862Z105.368
X373.337Z104.519
X373.025Z104.019
X372.087Z102.56
X371.462Z101.613
X370.525Z100.232
X369.587Z98.895
X368.65Z97.6
X367.712Z96.343
X366.462Z94.723
X365.525Z93.546
X364.587Z92.403
X363.337Z90.927
X362.712Z90.209
X361.462Z88.806
X360.212Z87.45
X358.962Z86.142
X357.712Z84.874
X357.087Z84.256
X355.837Z83.046
X354.587Z81.874
X353.337Z80.738
X352.087Z79.636
X350.837Z78.568
X349.587Z77.532
X348.337Z76.526
X347.087Z75.55
X345.837Z74.602
X344.587Z73.682
X343.337Z72.79
X341.462Z71.497
X340.212Z70.667
X338.962Z69.86
X337.712Z69.079
X336.462Z68.321
X334.587Z67.224
X333.337Z66.519
X332.087Z65.837
X330.212Z64.854
X328.962Z64.221
X327.712Z63.61
X325.837Z62.73
X324.587Z62.165
X323.337Z61.62
X321.462Z60.837
X320.212Z60.337
X319.587Z60.096
X318.337Z59.621
X317.087Z59.163
X315.837Z58.726
X313.962Z58.097
X312.712Z57.701
X310.837Z57.134
X309.587Z56.778
X307.712Z56.271
X306.462Z55.954
X304.587Z55.505
X302.712Z55.094
X301.462Z54.837
X299.587Z54.482
X298.337Z54.262
X296.462Z53.962
X295.212Z53.781
X293.337Z53.534
X291.462Z53.323
X290.212Z53.198
X288.337Z53.04
X287.087Z52.952
X285.837Z52.88
X285.212Z52.846
X283.962Z52.795
X282.087Z52.742
X280.212Z52.724
X278.962Z52.728
X277.087Z52.761
X275.212Z52.828
X273.962Z52.889
X272.087Z53.008
X270.837Z53.106
X268.962Z53.278
X267.712Z53.413
X265.837Z53.638
X263.962Z53.899
X262.712Z54.09
X260.837Z54.405
X259.587Z54.634
X257.712Z55.004
X256.462Z55.272
X254.587Z55.698
X252.712Z56.162
X251.462Z56.489
X249.587Z57.012
X248.337Z57.378
X246.462Z57.961
X245.212Z58.368
X243.337Z59.014
X242.087Z59.462
X240.837Z59.931
X239.587Z60.418
X238.962Z60.665
X237.712Z61.176
X235.837Z61.978
X234.587Z62.534
X233.337Z63.112
X231.462Z64.012
X230.212Z64.635
X228.962Z65.281
X227.087Z66.286
X225.837Z66.981
X224.587Z67.7
X223.337Z68.441
X221.462Z69.593
X220.212Z70.39
X218.962Z71.21
X217.712Z72.058
X216.462Z72.93
X215.837Z73.377
X215.212Z73.828
X213.962Z74.753
X212.712Z75.706
X211.462Z76.687
X210.212Z77.698
X208.962Z78.739
X207.712Z79.813
X206.462Z80.919
X205.212Z82.06
X203.962Z83.237
X202.712Z84.451
X201.462Z85.704
X200.212Z87.001
X198.962Z88.342
X198.337Z89.028
X197.087Z90.436
X195.837Z91.896
X194.9Z93.024
X193.962Z94.185
X192.712Z95.786
X192.087Z96.609
X191.462Z97.45
X190.931Z98.172
X178.081Z115.89
X177.087Z117.238
X176.462Z118.063
X175.212Z119.677
X174.587Z120.457
X173.337Z121.985
X172.087Z123.46
X170.837Z124.884
X170.212Z125.58
X168.962Z126.939
X167.712Z128.252
X166.462Z129.525
X165.837Z130.148
X164.587Z131.366
X163.337Z132.547
X162.087Z133.693
X160.837Z134.805
X159.587Z135.886
X158.337Z136.935
X157.087Z137.956
X155.837Z138.947
X154.587Z139.911
X153.337Z140.848
X152.087Z141.759
X150.837Z142.644
X149.587Z143.505
X148.337Z144.342
X147.087Z145.154
X145.837Z145.944
X143.962Z147.088
X142.712Z147.825
X141.462Z148.541
X140.212Z149.234
X138.337Z150.237
X137.087Z150.882
X135.837Z151.509
X134.587Z152.114
X133.337Z152.702
X132.087Z153.271
X131.462Z153.552
X130.212Z154.094
X128.337Z154.876
X127.088Z155.378
X125.838Z155.859
X123.963Z156.554
X122.713Z156.996
X120.838Z157.628
X119.588Z158.031
X118.338Z158.416
X116.463Z158.968
X115.213Z159.315
X113.338Z159.809
X112.088Z160.119
X110.213Z160.558
X108.963Z160.831
X107.088Z161.214
X105.838Z161.451
X103.963Z161.781
X102.088Z162.077
X100.838Z162.26
X99.588Z162.426
X97.713Z162.651
X95.838Z162.843
X94.588Z162.955
X93.338Z163.051
X91.463Z163.174
X89.588Z163.263
X88.338Z163.307
X86.463Z163.346
X85.213Z163.355
X83.338Z163.344
X82.088Z163.318
X80.213Z163.256
X78.338Z163.161
X77.088Z163.083
X75.213Z162.937
X73.338Z162.761
X72.088Z162.628
X70.838Z162.48
X69.588Z162.316
X67.713Z162.048
X65.838Z161.748
X64.588Z161.529
X62.713Z161.175
X61.463Z160.92
X59.588Z160.512
X58.338Z160.221
X56.463Z159.758
X55.213Z159.43
X53.338Z158.91
X52.088Z158.545
X50.213Z157.967
X48.963Z157.563
X47.088Z156.925
X45.838Z156.482
X44.588Z156.02
X42.713Z155.297
X41.463Z154.796
X40.838Z154.535
X39.588Z154.007
X38.338Z153.462
X37.088Z152.9
X35.838Z152.316
X34.588Z151.715
X32.713Z150.781
X31.463Z150.133
X30.213Z149.465
X28.338Z148.426
X27.088Z147.709
X25.838Z146.97
X24.588Z146.208
X23.338Z145.425
X22.088Z144.619
X21.463Z144.208
X20.213Z143.368
X18.963Z142.504
X17.713Z141.615
X16.463Z140.701
X15.213Z139.76
X13.963Z138.792
X12.713Z137.796
X11.463Z136.771
X10.213Z135.716
X8.963Z134.63
X7.713Z133.511
X6.463Z132.359
X5.213Z131.172
X4.588Z130.566
X3.338Z129.326
X2.088Z128.046
X0.838Z126.723
X-0.413Z125.357
X-1.038Z124.661
X-2.288Z123.227
X-2.913Z122.49
X-4.163Z120.985
X-5.413Z119.421
X-6.038Z118.619
X-6.663Z117.799
X-7.1Z117.222
Y140.002
X-6.663Z117.799
X-6.038Z118.619
X-5.413Z119.421
X-4.163Z120.985
X-2.913Z122.49
X-2.288Z123.227
X-1.038Z124.661
X-0.413Z125.357
X0.838Z126.723
X2.088Z128.046
X3.338Z129.326
X4.588Z130.566
X5.213Z131.172
X6.463Z132.359
X7.713Z133.511
X8.963Z134.63
X10.213Z135.716
X11.463Z136.771
X12.713Z137.796
X13.963Z138.792
X15.213Z139.76
X16.463Z140.701
X17.713Z141.615
X18.963Z142.504
X20.213Z143.368
X21.463Z144.208
X22.088Z144.619
X23.338Z145.425
X24.588Z146.208
X25.838Z146.97
X27.088Z147.709
X28.338Z148.426
X30.213Z149.465
X31.463Z150.133
X32.713Z150.781
X34.588Z151.715
X35.838Z152.316
X37.088Z152.9
X38.338Z153.462
X39.588Z154.007
X40.838Z154.535
X41.463Z154.796
X42.713Z155.297
X44.588Z156.02
X45.838Z156.482
X47.088Z156.925
X48.963Z157.563
X50.213Z157.967
X52.088Z158.545
X53.338Z158.91
X55.213Z159.43
X56.463Z159.758
X58.338Z160.221
X59.588Z160.512
X61.463Z160.92
X62.713Z161.175
X64.588Z161.529
X65.838Z161.748
X67.713Z162.048
X69.588Z162.316
X70.838Z162.48
X72.088Z162.628
X73.338Z162.761
X75.213Z162.937
X77.088Z163.083
X78.338Z163.161
X80.213Z163.256
X82.088Z163.318
X83.338Z163.344
X85.213Z163.355
X86.463Z163.346
X88.338Z163.307
X89.588Z163.263
X91.463Z163.174
X93.338Z163.051
X94.588Z162.955
X95.838Z162.843
X97.713Z162.651
X99.588Z162.426
X100.838Z162.26
X102.088Z162.077
X103.963Z161.781
X105.838Z161.451
X107.088Z161.214
X108.963Z160.831
X110.213Z160.558
X112.088Z160.119
X113.338Z159.809
X115.213Z159.315
X116.463Z158.968
X118.338Z158.416
X119.588Z158.031
X120.838Z157.628
X122.713Z156.996
X123.963Z156.554
X125.838Z155.859
X127.088Z155.378
X128.337Z154.876
X130.212Z154.094
X131.462Z153.552
X132.087Z153.271
X133.337Z152.702
X134.587Z152.114
X135.837Z151.509
X137.087Z150.882
X138.337Z150.237
X140.212Z149.234
X141.462Z148.541
X142.712Z147.825
X143.962Z147.088
X145.837Z145.944
X147.087Z145.154
X148.337Z144.342
X149.587Z143.505
X150.837Z142.644
X152.087Z141.759
X153.337Z140.848
X154.587Z139.911
X155.837Z138.947
X157.087Z137.956
X158.337Z136.935
X159.587Z135.886
X160.837Z134.805
X162.087Z133.693
X163.337Z132.547
X164.587Z131.366
X165.837Z130.148
X166.462Z129.525
X167.712Z128.252
X168.962Z126.939
X170.212Z125.58
X170.837Z124.884
X172.087Z123.46
X173.337Z121.985
X174.587Z120.457
X175.212Z119.677
X176.462Z118.063
X177.087Z117.238
X178.081Z115.89
X190.931Z98.172
X191.462Z97.45
X192.087Z96.609
X192.712Z95.786
X193.962Z94.185
X194.9Z93.024
X195.837Z91.896
X197.087Z90.436
X198.337Z89.028
X198.962Z88.342
X200.212Z87.001
X201.462Z85.704
X202.712Z84.451
X203.962Z83.237
X205.212Z82.06
X206.462Z80.919
X207.712Z79.813
X208.962Z78.739
X210.212Z77.698
X211.462Z76.687
X212.712Z75.706
X213.962Z74.753
X215.212Z73.828
X215.837Z73.377
X216.462Z72.93
X217.712Z72.058
X218.962Z71.21
X220.212Z70.39
X221.462Z69.593
X223.337Z68.441
X224.587Z67.7
X225.837Z66.981
X227.087Z66.286
X228.962Z65.281
X230.212Z64.635
X231.462Z64.012
X233.337Z63.112
X234.587Z62.534
X235.837Z61.978
X237.712Z61.176
X238.962Z60.665
X239.587Z60.418
X240.837Z59.931
X242.087Z59.462
X243.337Z59.014
X245.212Z58.368
X246.462Z57.961
X248.337Z57.378
X249.587Z57.012
X251.462Z56.489
X252.712Z56.162
X254.587Z55.698
X256.462Z55.272
X257.712Z55.004
X259.587Z54.634
X260.837Z54.405
X262.712Z54.09
X263.962Z53.899
X265.837Z53.638
X267.712Z53.413
X268.962Z53.278
X270.837Z53.106
X272.087Z53.008
X273.962Z52.889
X275.212Z52.828
X277.087Z52.761
X278.962Z52.728
X280.212Z52.724
X282.087Z52.742
X283.962Z52.795
X285.212Z52.846
X285.837Z52.88
X287.087Z52.952
X288.337Z53.04
X290.212Z53.198
X291.462Z53.323
X293.337Z53.534
X295.212Z53.781
X296.462Z53.962
X298.337Z54.262
X299.587Z54.482
X301.462Z54.837
X302.712Z55.094
X304.587Z55.505
X306.462Z55.954
X307.712Z56.271
X309.587Z56.778
X310.837Z57.134
X312.712Z57.701
X313.962Z58.097
X315.837Z58.726
X317.087Z59.163
X318.337Z59.621
X319.587Z60.096
X320.212Z60.337
X321.462Z60.837
X323.337Z61.62
X324.587Z62.165
X325.837Z62.73
X327.712Z63.61
X328.962Z64.221
X330.212Z64.854
X332.087Z65.837
X333.337Z66.519
X334.587Z67.224
X336.462Z68.321
X337.712Z69.079
X338.962Z69.86
X340.212Z70.667
X341.462Z71.497
X343.337Z72.79
X344.587Z73.682
X345.837Z74.602
X347.087Z75.55
X348.337Z76.526
X349.587Z77.532
X350.837Z78.568
X352.087Z79.636
X353.337Z80.738
X354.587Z81.874
X355.837Z83.046
X357.087Z84.256
X357.712Z84.874
X358.962Z86.142
X360.212Z87.45
X361.462Z88.806
X362.712Z90.209
X363.337Z90.927
X364.587Z92.403
X365.525Z93.546
X366.462Z94.723
X367.712Z96.343
X368.65Z97.6
X369.587Z98.895
X370.525Z100.232
X371.462Z101.613
X372.087Z102.56
X373.025Z104.019
X373.337Z104.519
X373.862Z105.368
X374.387Z106.239
X374.912Z107.121
X375.437Z108.029
Y135.002Z108.03
X374.912Z107.122
X374.387Z106.239
X373.862Z105.368
X373.337Z104.519
X373.025Z104.019
X372.087Z102.56
X371.462Z101.613
X370.525Z100.232
X369.587Z98.895
X368.65Z97.6
X367.712Z96.343
X366.462Z94.723
X365.525Z93.546
X364.587Z92.403
X363.337Z90.927
X362.712Z90.209
X361.462Z88.806
X360.212Z87.45
X358.962Z86.142
X357.712Z84.874
X357.087Z84.256
X355.837Z83.046
X354.587Z81.874
X353.337Z80.738
X352.087Z79.636
X350.837Z78.568
X349.587Z77.532
X348.337Z76.526
X347.087Z75.55
X345.837Z74.602
X344.587Z73.682
X343.337Z72.79
X341.462Z71.497
X340.212Z70.667
X338.962Z69.86
X337.712Z69.079
X336.462Z68.321
X334.587Z67.224
X333.337Z66.519
X332.087Z65.837
X330.212Z64.854
X328.962Z64.221
X327.712Z63.61
X325.837Z62.73
X324.587Z62.165
X323.337Z61.62
X321.462Z60.837
X320.212Z60.337
X319.587Z60.096
X318.337Z59.621
X317.087Z59.163
X315.837Z58.726
X313.962Z58.097
X312.712Z57.701
X310.837Z57.134
X309.587Z56.778
X307.712Z56.271
X306.462Z55.954
X304.587Z55.505
X302.712Z55.094
X301.462Z54.837
X299.587Z54.482
X298.337Z54.262
X296.462Z53.962
X295.212Z53.781
X293.337Z53.534
X291.462Z53.323
X290.212Z53.198
X288.337Z53.04
X287.087Z52.952
X285.837Z52.88
X285.212Z52.846
X283.962Z52.795
X282.087Z52.742
X280.212Z52.724
X278.962Z52.728
X277.087Z52.761
X275.212Z52.828
X273.962Z52.889
X272.087Z53.008
X270.837Z53.106
X268.962Z53.278
X267.712Z53.413
X265.837Z53.638
X263.962Z53.899
X262.712Z54.09
X260.837Z54.405
X259.587Z54.634
X257.712Z55.004
X256.462Z55.272
X254.587Z55.698
X252.712Z56.162
X251.462Z56.489
X249.587Z57.012
X248.337Z57.378
X246.462Z57.961
X245.212Z58.368
X243.337Z59.014
X242.087Z59.462
X240.837Z59.931
X239.587Z60.418
X238.962Z60.665
X237.712Z61.176
X235.837Z61.978
X234.587Z62.534
X233.337Z63.112
X231.462Z64.012
X230.212Z64.635
X228.962Z65.281
X227.087Z66.286
X225.837Z66.981
X224.587Z67.7
X223.337Z68.441
X221.462Z69.593
X220.212Z70.39
X218.962Z71.21
X217.712Z72.058
X216.462Z72.93
X215.837Z73.377
X215.212Z73.828
X213.962Z74.753
X212.712Z75.706
X211.462Z76.687
X210.212Z77.698
X208.962Z78.739
X207.712Z79.813
X206.462Z80.919
X205.212Z82.06
X203.962Z83.237
X202.712Z84.451
X201.462Z85.704
X200.212Z87.001
X198.962Z88.342
X198.337Z89.028
X197.087Z90.436
X195.837Z91.896
X194.9Z93.024
X193.962Z94.185
X192.712Z95.786
X192.087Z96.609
X191.462Z97.45
X190.931Z98.172
X178.081Z115.89
X177.087Z117.238
X176.462Z118.063
X175.212Z119.677
X174.587Z120.457
X173.337Z121.985
X172.087Z123.46
X170.837Z124.884
X170.212Z125.58
X168.962Z126.939
X167.712Z128.252
X166.462Z129.525
X165.837Z130.148
X164.587Z131.366
X163.337Z132.547
X162.087Z133.693
X160.837Z134.805
X159.587Z135.886
X158.337Z136.935
X157.087Z137.956
X155.837Z138.947
X154.587Z139.911
X153.337Z140.848
X152.087Z141.759
X150.837Z142.644
X149.587Z143.505
X148.337Z144.342
X147.087Z145.154
X145.837Z145.944
X143.962Z147.088
X142.712Z147.825
X141.462Z148.541
X140.212Z149.234
X138.337Z150.237
X137.087Z150.882
X135.837Z151.509
X134.587Z152.114
X133.337Z152.702
X132.087Z153.271
X131.462Z153.552
X130.212Z154.094
X128.337Z154.876
X127.088Z155.378
X125.838Z155.859
X123.963Z156.554
X122.713Z156.996
X120.838Z157.628
X119.588Z158.031
X118.338Z158.416
X116.463Z158.968
X115.213Z159.315
X113.338Z159.809
X112.088Z160.119
X110.213Z160.558
X108.963Z160.831
X107.088Z161.214
X105.838Z161.451
X103.963Z161.781
X102.088Z162.077
X100.838Z162.26
X99.588Z162.426
X97.713Z162.651
X95.838Z162.843
X94.588Z162.955
X93.338Z163.051
X91.463Z163.174
X89.588Z163.263
X88.338Z163.307
X86.463Z163.346
X85.213Z163.355
X83.338Z163.344
X82.088Z163.318
X80.213Z163.256
X78.338Z163.161
X77.088Z163.083
X75.213Z162.937
X73.338Z162.761
X72.088Z162.628
X70.838Z162.48
X69.588Z162.316
X67.713Z162.048
X65.838Z161.748
X64.588Z161.529
X62.713Z161.175
X61.463Z160.92
X59.588Z160.512
X58.338Z160.221
X56.463Z159.758
X55.213Z159.43
X53.338Z158.91
X52.088Z158.545
X50.213Z157.967
X48.963Z157.563
X47.088Z156.925
X45.838Z156.482
X44.588Z156.02
X42.713Z155.297
X41.463Z154.796
X40.838Z154.535
X39.588Z154.007
X38.338Z153.462
X37.088Z152.9
X35.838Z152.316
X34.588Z151.715
X32.713Z150.781
X31.463Z150.133
X30.213Z149.465
X28.338Z148.426
X27.088Z147.709
X25.838Z146.97
X24.588Z146.208
X23.338Z145.425
X22.088Z144.619
X21.463Z144.208
X20.213Z143.368
X18.963Z142.504
X17.713Z141.615
X16.463Z140.701
X15.213Z139.76
X13.963Z138.792
X12.713Z137.796
X11.463Z136.771
X10.213Z135.716
X8.963Z134.63
X7.713Z133.511
X6.463Z132.359
X5.213Z131.172
X4.588Z130.566
X3.338Z129.326
X2.088Z128.046
X0.838Z126.723
X-0.413Z125.357
X-1.038Z124.661
X-2.288Z123.227
X-2.913Z122.49
X-4.163Z120.985
X-5.413Z119.421
X-6.038Z118.619
X-6.663Z117.799
X-7.1Z117.222
Y130.002
X-6.663Z117.799
X-6.038Z118.619
X-5.413Z119.421
X-4.163Z120.985
X-2.913Z122.49
X-2.288Z123.227
X-1.038Z124.661
X-0.413Z125.357
X0.838Z126.723
X2.088Z128.046
X3.338Z129.326
X4.588Z130.566
X5.213Z131.172
X6.463Z132.359
X7.713Z133.511
X8.963Z134.63
X10.213Z135.716
X11.463Z136.771
X12.713Z137.796
X13.963Z138.792
X15.213Z139.76
X16.463Z140.701
X17.713Z141.615
X18.963Z142.504
X20.213Z143.368
X21.463Z144.208
X22.088Z144.619
X23.338Z145.425
X24.588Z146.208
X25.838Z146.97
X27.088Z147.709
X28.338Z148.426
X30.213Z149.465
X31.463Z150.133
X32.713Z150.781
X34.588Z151.715
X35.838Z152.316
X37.088Z152.9
X38.338Z153.462
X39.588Z154.007
X40.838Z154.535
X41.463Z154.796
X42.713Z155.297
X44.588Z156.02
X45.838Z156.482
X47.088Z156.925
X48.963Z157.563
X50.213Z157.967
X52.088Z158.545
X53.338Z158.91
X55.213Z159.43
X56.463Z159.758
X58.338Z160.221
X59.588Z160.512
X61.463Z160.92
X62.713Z161.175
X64.588Z161.529
X65.838Z161.748
X67.713Z162.048
X69.588Z162.316
X70.838Z162.48
X72.088Z162.628
X73.338Z162.761
X75.213Z162.937
X77.088Z163.083
X78.338Z163.161
X80.213Z163.256
X82.088Z163.318
X83.338Z163.344
X85.213Z163.355
X86.463Z163.346
X88.338Z163.307
X89.588Z163.263
X91.463Z163.174
X93.338Z163.051
X94.588Z162.955
X95.838Z162.843
X97.713Z162.651
X99.588Z162.426
X100.838Z162.26
X102.088Z162.077
X103.963Z161.781
X105.838Z161.451
X107.088Z161.214
X108.963Z160.831
X110.213Z160.558
X112.088Z160.119
X113.338Z159.809
X115.213Z159.315
X116.463Z158.968
X118.338Z158.416
X119.588Z158.031
X120.838Z157.628
X122.713Z156.996
X123.963Z156.554
X125.838Z155.859
X127.088Z155.378
X128.337Z154.876
X130.212Z154.094
X131.462Z153.552
X132.087Z153.271
X133.337Z152.702
X134.587Z152.114
X135.837Z151.509
X137.087Z150.882
X138.337Z150.237
X140.212Z149.234
X141.462Z148.541
X142.712Z147.825
X143.962Z147.088
X145.837Z145.944
X147.087Z145.154
X148.337Z144.342
X149.587Z143.505
X150.837Z142.644
X152.087Z141.759
X153.337Z140.848
X154.587Z139.911
X155.837Z138.947
X157.087Z137.956
X158.337Z136.935
X159.587Z135.886
X160.837Z134.805
X162.087Z133.693
X163.337Z132.547
X164.587Z131.366
X165.837Z130.148
X166.462Z129.525
X167.712Z128.252
X168.962Z126.939
X170.212Z125.58
X170.837Z124.884
X172.087Z123.46
X173.337Z121.985
X174.587Z120.457
X175.212Z119.677
X176.462Z118.063
X177.087Z117.238
X178.081Z115.89
X190.931Z98.172
X191.462Z97.45
X192.087Z96.609
X192.712Z95.786
X193.962Z94.185
X194.9Z93.024
X195.837Z91.896
X197.087Z90.436
X198.337Z89.028
X198.962Z88.342
X200.212Z87.001
X201.462Z85.704
X202.712Z84.451
X203.962Z83.237
X205.212Z82.06
X206.462Z80.919
X207.712Z79.813
X208.962Z78.739
X210.212Z77.698
X211.462Z76.687
X212.712Z75.706
X213.962Z74.753
X215.212Z73.828
X215.837Z73.377
X216.462Z72.93
X217.712Z72.058
X218.962Z71.21
X220.212Z70.39
X221.462Z69.593
X223.337Z68.441
X224.587Z67.7
X225.837Z66.981
X227.087Z66.286
X228.962Z65.281
X230.212Z64.635
X231.462Z64.012
X233.337Z63.112
X234.587Z62.534
X235.837Z61.978
X237.712Z61.176
X238.962Z60.665
X239.587Z60.418
X240.837Z59.931
X242.087Z59.462
X243.337Z59.014
X245.212Z58.368
X246.462Z57.961
X248.337Z57.378
X249.587Z57.012
X251.462Z56.489
X252.712Z56.162
X254.587Z55.698
X256.462Z55.272
X257.712Z55.004
X259.587Z54.634
X260.837Z54.405
X262.712Z54.09
X263.962Z53.899
X265.837Z53.638
X267.712Z53.413
X268.962Z53.278
X270.837Z53.106
X272.087Z53.008
X273.962Z52.889
X275.212Z52.828
X277.087Z52.761
X278.962Z52.728
X280.212Z52.724
X282.087Z52.742
X283.962Z52.795
X285.212Z52.846
X285.837Z52.88
X287.087Z52.952
X288.337Z53.04
X290.212Z53.198
X291.462Z53.323
X293.337Z53.534
X295.212Z53.781
X296.462Z53.962
X298.337Z54.262
X299.587Z54.482
X301.462Z54.837
X302.712Z55.094
X304.587Z55.505
X306.462Z55.954
X307.712Z56.271
X309.587Z56.778
X310.837Z57.134
X312.712Z57.701
X313.962Z58.097
X315.837Z58.726
X317.087Z59.163
X318.337Z59.621
X319.587Z60.096
X320.212Z60.337
X321.462Z60.837
X323.337Z61.62
X324.587Z62.165
X325.837Z62.73
X327.712Z63.61
X328.962Z64.221
X330.212Z64.854
X332.087Z65.837
X333.337Z66.519
X334.587Z67.224
X336.462Z68.321
X337.712Z69.079
X338.962Z69.86
X340.212Z70.667
X341.462Z71.497
X343.337Z72.79
X344.587Z73.682
X345.837Z74.602
X347.087Z75.55
X348.337Z76.526
X349.587Z77.532
X350.837Z78.568
X352.087Z79.636
X353.337Z80.738
X354.587Z81.874
X355.837Z83.046
X357.087Z84.256
X357.712Z84.874
X358.962Z86.142
X360.212Z87.45
X361.462Z88.806
X362.712Z90.209
X363.337Z90.927
X364.587Z92.403
X365.525Z93.546
X366.462Z94.723
X367.712Z96.343
X368.65Z97.6
X369.587Z98.895
X370.525Z100.232
X371.462Z101.613
X372.087Z102.56
X373.025Z104.019
X373.337Z104.519
X373.862Z105.368
X374.387Z106.239
X374.912Z107.122
X375.437Z108.03
X375.438Y125.002Z108.031
X374.913Z107.122
X374.387Z106.239
X373.862Z105.368
X373.337Z104.519
X373.025Z104.019
X372.087Z102.56
X371.462Z101.613
X370.525Z100.232
X369.587Z98.895
X368.65Z97.6
X367.712Z96.343
X366.462Z94.723
X365.525Z93.546
X364.587Z92.403
X363.337Z90.927
X362.712Z90.209
X361.462Z88.806
X360.212Z87.45
X358.962Z86.142
X357.712Z84.874
X357.087Z84.256
X355.837Z83.046
X354.587Z81.874
X353.337Z80.738
X352.087Z79.636
X350.837Z78.568
X349.587Z77.532
X348.337Z76.526
X347.087Z75.55
X345.837Z74.602
X344.587Z73.682
X343.337Z72.79
X341.462Z71.497
X340.212Z70.667
X338.962Z69.86
X337.712Z69.079
X336.462Z68.321
X334.587Z67.224
X333.337Z66.519
X332.087Z65.837
X330.212Z64.854
X328.962Z64.221
X327.712Z63.61
X325.837Z62.73
X324.587Z62.165
X323.337Z61.62
X321.462Z60.837
X320.212Z60.337
X319.587Z60.096
X318.337Z59.621
X317.087Z59.163
X315.837Z58.726
X313.962Z58.097
X312.712Z57.701
X310.837Z57.134
X309.587Z56.778
X307.712Z56.271
X306.462Z55.954
X304.587Z55.505
X302.712Z55.094
X301.462Z54.837
X299.587Z54.482
X298.337Z54.262
X296.462Z53.962
X295.212Z53.781
X293.337Z53.534
X291.462Z53.323
X290.212Z53.198
X288.337Z53.04
X287.087Z52.952
X285.837Z52.88
X285.212Z52.846
X283.962Z52.795
X282.087Z52.742
X280.212Z52.724
X278.962Z52.728
X277.087Z52.761
X275.212Z52.828
X273.962Z52.889
X272.087Z53.008
X270.837Z53.106
X268.962Z53.278
X267.712Z53.413
X265.837Z53.638
X263.962Z53.899
X262.712Z54.09
X260.837Z54.405
X259.587Z54.634
X257.712Z55.004
X256.462Z55.272
X254.587Z55.698
X252.712Z56.162
X251.462Z56.489
X249.587Z57.012
X248.337Z57.378
X246.462Z57.961
X245.212Z58.368
X243.337Z59.014
X242.087Z59.462
X240.837Z59.931
X239.587Z60.418
X238.962Z60.665
X237.712Z61.176
X235.837Z61.978
X234.587Z62.534
X233.337Z63.112
X231.462Z64.012
X230.212Z64.635
X228.962Z65.281
X227.087Z66.286
X225.837Z66.981
X224.587Z67.7
X223.337Z68.441
X221.462Z69.593
X220.212Z70.39
X218.962Z71.21
X217.712Z72.058
X216.462Z72.93
X215.837Z73.377
X215.212Z73.828
X213.962Z74.753
X212.712Z75.706
X211.462Z76.687
X210.212Z77.698
X208.962Z78.739
X207.712Z79.813
X206.462Z80.919
X205.212Z82.06
X203.962Z83.237
X202.712Z84.451
X201.462Z85.704
X200.212Z87.001
X198.962Z88.342
X198.337Z89.028
X197.087Z90.436
X195.837Z91.896
X194.9Z93.024
X193.962Z94.185
X192.712Z95.786
X192.087Z96.609
X191.462Z97.45
X190.931Z98.172
X178.081Z115.89
X177.087Z117.238
X176.462Z118.063
X175.212Z119.677
X174.587Z120.457
X173.337Z121.985
X172.087Z123.46
X170.837Z124.884
X170.212Z125.58
X168.962Z126.939
X167.712Z128.252
X166.462Z129.525
X165.837Z130.148
X164.587Z131.366
X163.337Z132.547
X162.087Z133.693
X160.837Z134.805
X159.587Z135.886
X158.337Z136.935
X157.087Z137.956
X155.837Z138.947
X154.587Z139.911
X153.337Z140.848
X152.087Z141.759
X150.837Z142.644
X149.587Z143.505
X148.337Z144.342
X147.087Z145.154
X145.837Z145.944
X143.962Z147.088
X142.712Z147.825
X141.462Z148.541
X140.212Z149.234
X138.337Z150.237
X137.087Z150.882
X135.837Z151.509
X134.587Z152.114
X133.337Z152.702
X132.087Z153.271
X131.462Z153.552
X130.212Z154.094
X128.337Z154.876
X127.088Z155.378
X125.838Z155.859
X123.963Z156.554
X122.713Z156.996
X120.838Z157.628
X119.588Z158.031
X118.338Z158.416
X116.463Z158.968
X115.213Z159.315
X113.338Z159.809
X112.088Z160.119
X110.213Z160.558
X108.963Z160.831
X107.088Z161.214
X105.838Z161.451
X103.963Z161.781
X102.088Z162.077
X100.838Z162.26
X99.588Z162.426
X97.713Z162.651
X95.838Z162.843
X94.588Z162.955
X93.338Z163.051
X91.463Z163.174
X89.588Z163.263
X88.338Z163.307
X86.463Z163.346
X85.213Z163.355
X83.338Z163.344
X82.088Z163.318
X80.213Z163.256
X78.338Z163.161
X77.088Z163.083
X75.213Z162.937
X73.338Z162.761
X72.088Z162.628
X70.838Z162.48
X69.588Z162.316
X67.713Z162.048
X65.838Z161.748
X64.588Z161.529
X62.713Z161.175
X61.463Z160.92
X59.588Z160.512
X58.338Z160.221
X56.463Z159.758
X55.213Z159.43
X53.338Z158.91
X52.088Z158.545
X50.213Z157.967
X48.963Z157.563
X47.088Z156.925
X45.838Z156.482
X44.588Z156.02
X42.713Z155.297
X41.463Z154.796
X40.838Z154.535
X39.588Z154.007
X38.338Z153.462
X37.088Z152.9
X35.838Z152.316
X34.588Z151.715
X32.713Z150.781
X31.463Z150.133
X30.213Z149.465
X28.338Z148.426
X27.088Z147.709
X25.838Z146.97
X24.588Z146.208
X23.338Z145.425
X22.088Z144.619
X21.463Z144.208
X20.213Z143.368
X18.963Z142.504
X17.713Z141.615
X16.463Z140.701
X15.213Z139.76
X13.963Z138.792
X12.713Z137.796
X11.463Z136.771
X10.213Z135.716
X8.963Z134.63
X7.713Z133.511
X6.463Z132.359
X5.213Z131.172
X4.588Z130.566
X3.338Z129.326
X2.088Z128.046
X0.838Z126.723
X-0.413Z125.357
X-1.038Z124.661
X-2.288Z123.227
X-2.913Z122.49
X-4.163Z120.985
X-5.413Z119.421
X-6.038Z118.619
X-6.663Z117.799
X-7.1Z117.222
Y120.002
X-6.663Z117.799
X-6.038Z118.619
X-5.413Z119.421
X-4.163Z120.985
X-2.913Z122.49
X-2.288Z123.227
X-1.038Z124.661
X-0.413Z125.357
X0.838Z126.723
X2.088Z128.046
X3.338Z129.326
X4.588Z130.566
X5.213Z131.172
X6.463Z132.359
X7.713Z133.511
X8.963Z134.63
X10.213Z135.716
X11.463Z136.771
X12.713Z137.796
X13.963Z138.792
X15.213Z139.76
X16.463Z140.701
X17.713Z141.615
X18.963Z142.504
X20.213Z143.368
X21.463Z144.208
X22.088Z144.619
X23.338Z145.425
X24.588Z146.208
X25.838Z146.97
X27.088Z147.709
X28.338Z148.426
X30.213Z149.465
X31.463Z150.133
X32.713Z150.781
X34.588Z151.715
X35.838Z152.316
X37.088Z152.9
X38.338Z153.462
X39.588Z154.007
X40.838Z154.535
X41.463Z154.796
X42.713Z155.297
X44.588Z156.02
X45.838Z156.482
X47.088Z156.925
X48.963Z157.563
X50.213Z157.967
X52.088Z158.545
X53.338Z158.91
X55.213Z159.43
X56.463Z159.758
X58.338Z160.221
X59.588Z160.512
X61.463Z160.92
X62.713Z161.175
X64.588Z161.529
X65.838Z161.748
X67.713Z162.048
X69.588Z162.316
X70.838Z162.48
X72.088Z162.628
X73.338Z162.761
X75.213Z162.937
X77.088Z163.083
X78.338Z163.161
X80.213Z163.256
X82.088Z163.318
X83.338Z163.344
X85.213Z163.355
X86.463Z163.346
X88.338Z163.307
X89.588Z163.263
X91.463Z163.174
X93.338Z163.051
X94.588Z162.955
X95.838Z162.843
X97.713Z162.651
X99.588Z162.426
X100.838Z162.26
X102.088Z162.077
X103.963Z161.781
X105.838Z161.451
X107.088Z161.214
X108.963Z160.831
X110.213Z160.558
X112.088Z160.119
X113.338Z159.809
X115.213Z159.315
X116.463Z158.968
X118.338Z158.416
X119.588Z158.031
X120.838Z157.628
X122.713Z156.996
X123.963Z156.554
X125.838Z155.859
X127.088Z155.378
X128.337Z154.876
X130.212Z154.094
X131.462Z153.552
X132.087Z153.271
X133.337Z152.702
X134.587Z152.114
X135.837Z151.509
X137.087Z150.882
X138.337Z150.237
X140.212Z149.234
X141.462Z148.541
X142.712Z147.825
X143.962Z147.088
X145.837Z145.944
X147.087Z145.154
X148.337Z144.342
X149.587Z143.505
X150.837Z142.644
X152.087Z141.759
X153.337Z140.848
X154.587Z139.911
X155.837Z138.947
X157.087Z137.956
X158.337Z136.935
X159.587Z135.886
X160.837Z134.805
X162.087Z133.693
X163.337Z132.547
X164.587Z131.366
X165.837Z130.148
X166.462Z129.525
X167.712Z128.252
X168.962Z126.939
X170.212Z125.58
X170.837Z124.884
X172.087Z123.46
X173.337Z121.985
X174.587Z120.457
X175.212Z119.677
X176.462Z118.063
X177.087Z117.238
X178.081Z115.89
X190.931Z98.172
X191.462Z97.45
X192.087Z96.609
X192.712Z95.786
X193.962Z94.185
X194.9Z93.024
X195.837Z91.896
X197.087Z90.436
X198.337Z89.028
X198.962Z88.342
X200.212Z87.001
X201.462Z85.704
X202.712Z84.451
X203.962Z83.237
X205.212Z82.06
X206.462Z80.919
X207.712Z79.813
X208.962Z78.739
X210.212Z77.698
X211.462Z76.687
X212.712Z75.706
X213.962Z74.753
X215.212Z73.828
X215.837Z73.377
X216.462Z72.93
X217.712Z72.058
X218.962Z71.21
X220.212Z70.39
X221.462Z69.593
X223.337Z68.441
X224.587Z67.7
X225.837Z66.981
X227.087Z66.286
X228.962Z65.281
X230.212Z64.635
X231.462Z64.012
X233.337Z63.112
X234.587Z62.534
X235.837Z61.978
X237.712Z61.176
X238.962Z60.665
X239.587Z60.418
X240.837Z59.931
X242.087Z59.462
X243.337Z59.014
X245.212Z58.368
X246.462Z57.961
X248.337Z57.378
X249.587Z57.012
X251.462Z56.489
X252.712Z56.162
X254.587Z55.698
X256.462Z55.272
X257.712Z55.004
X259.587Z54.634
X260.837Z54.405
X262.712Z54.09
X263.962Z53.899
X265.837Z53.638
X267.712Z53.413
X268.962Z53.278
X270.837Z53.106
X272.087Z53.008
X273.962Z52.889
X275.212Z52.828
X277.087Z52.761
X278.962Z52.728
X280.212Z52.724
X282.087Z52.742
X283.962Z52.795
X285.212Z52.846
X285.837Z52.88
X287.087Z52.952
X288.337Z53.04
X290.212Z53.198
X291.462Z53.323
X293.337Z53.534
X295.212Z53.781
X296.462Z53.962
X298.337Z54.262
X299.587Z54.482
X301.462Z54.837
X302.712Z55.094
X304.587Z55.505
X306.462Z55.954
X307.712Z56.271
X309.587Z56.778
X310.837Z57.134
X312.712Z57.701
X313.962Z58.097
X315.837Z58.726
X317.087Z59.163
X318.337Z59.621
X319.587Z60.096
X320.212Z60.337
X321.462Z60.837
X323.337Z61.62
X324.587Z62.165
X325.837Z62.73
X327.712Z63.61
X328.962Z64.221
X330.212Z64.854
X332.087Z65.837
X333.337Z66.519
X334.587Z67.224
X336.462Z68.321
X337.712Z69.079
X338.962Z69.86
X340.212Z70.667
X341.462Z71.497
X343.337Z72.79
X344.587Z73.682
X345.837Z74.602
X347.087Z75.55
X348.337Z76.526
X349.587Z77.532
X350.837Z78.568
X352.087Z79.636
X353.337Z80.738
X354.587Z81.874
X355.837Z83.046
X357.087Z84.256
X357.712Z84.874
X358.962Z86.142
X360.212Z87.45
X361.462Z88.806
X362.712Z90.209
X363.337Z90.927
X364.587Z92.403
X365.525Z93.546
X366.462Z94.723
X367.712Z96.343
X368.65Z97.6
X369.587Z98.895
X370.525Z100.232
X371.462Z101.613
X372.087Z102.56
X373.025Z104.019
X373.337Z104.519
X373.863Z105.369
X374.388Z106.24
X374.913Z107.123
X375.438Z108.031
Y115.002Z108.032
X374.913Z107.123
X374.388Z106.24
X373.863Z105.369
X373.337Z104.519
X373.025Z104.019
X372.087Z102.56
X371.462Z101.613
X370.525Z100.232
X369.587Z98.895
X368.65Z97.6
X367.712Z96.343
X366.462Z94.723
X365.525Z93.546
X364.587Z92.403
X363.337Z90.927
X362.712Z90.209
X361.462Z88.806
X360.212Z87.45
X358.962Z86.142
X357.712Z84.874
X357.087Z84.256
X355.837Z83.046
X354.587Z81.874
X353.337Z80.738
X352.087Z79.636
X350.837Z78.568
X349.587Z77.532
X348.337Z76.526
X347.087Z75.55
X345.837Z74.602
X344.587Z73.682
X343.337Z72.79
X341.462Z71.497
X340.212Z70.667
X338.962Z69.86
X337.712Z69.079
X336.462Z68.321
X334.587Z67.224
X333.337Z66.519
X332.087Z65.837
X330.212Z64.854
X328.962Z64.221
X327.712Z63.61
X325.837Z62.73
X324.587Z62.165
X323.337Z61.62
X321.462Z60.837
X320.212Z60.337
X319.587Z60.096
X318.337Z59.621
X317.087Z59.163
X315.837Z58.726
X313.962Z58.097
X312.712Z57.701
X310.837Z57.134
X309.587Z56.778
X307.712Z56.271
X306.462Z55.954
X304.587Z55.505
X302.712Z55.094
X301.462Z54.837
X299.587Z54.482
X298.337Z54.262
X296.462Z53.962
X295.212Z53.781
X293.337Z53.534
X291.462Z53.323
X290.212Z53.198
X288.337Z53.04
X287.087Z52.952
X285.837Z52.88
X285.212Z52.846
X283.962Z52.795
X282.087Z52.742
X280.212Z52.724
X278.962Z52.728
X277.087Z52.761
X275.212Z52.828
X273.962Z52.889
X272.087Z53.008
X270.837Z53.106
X268.962Z53.278
X267.712Z53.413
X265.837Z53.638
X263.962Z53.899
X262.712Z54.09
X260.837Z54.405
X259.587Z54.634
X257.712Z55.004
X256.462Z55.272
X254.587Z55.698
X252.712Z56.162
X251.462Z56.489
X249.587Z57.012
X248.337Z57.378
X246.462Z57.961
X245.212Z58.368
X243.337Z59.014
X242.087Z59.462
X240.837Z59.931
X239.587Z60.418
X238.962Z60.665
X237.712Z61.176
X235.837Z61.978
X234.587Z62.534
X233.337Z63.112
X231.462Z64.012
X230.212Z64.635
X228.962Z65.281
X227.087Z66.286
X225.837Z66.981
X224.587Z67.7
X223.337Z68.441
X221.462Z69.593
X220.212Z70.39
X218.962Z71.21
X217.712Z72.058
X216.462Z72.93
X215.837Z73.377
X215.212Z73.828
X213.962Z74.753
X212.712Z75.706
X211.462Z76.687
X210.212Z77.698
X208.962Z78.739
X207.712Z79.813
X206.462Z80.919
X205.212Z82.06
X203.962Z83.237
X202.712Z84.451
X201.462Z85.704
X200.212Z87.001
X198.962Z88.342
X198.337Z89.028
X197.087Z90.436
X195.837Z91.896
X194.9Z93.024
X193.962Z94.185
X192.712Z95.786
X192.087Z96.609
X191.462Z97.45
X190.931Z98.172
X178.081Z115.89
X177.087Z117.238
X176.462Z118.063
X175.212Z119.677
X174.587Z120.457
X173.337Z121.985
X172.087Z123.46
X170.837Z124.884
X170.212Z125.58
X168.962Z126.939
X167.712Z128.252
X166.462Z129.525
X165.837Z130.148
X164.587Z131.366
X163.337Z132.547
X162.087Z133.693
X160.837Z134.805
X159.587Z135.886
X158.337Z136.935
X157.087Z137.956
X155.837Z138.947
X154.587Z139.911
X153.337Z140.848
X152.087Z141.759
X150.837Z142.644
X149.587Z143.505
X148.337Z144.342
X147.087Z145.154
X145.837Z145.944
X143.962Z147.088
X142.712Z147.825
X141.462Z148.541
X140.212Z149.234
X138.337Z150.237
X137.087Z150.882
X135.837Z151.509
X134.587Z152.114
X133.337Z152.702
X132.087Z153.271
X131.462Z153.552
X130.212Z154.094
X128.337Z154.876
X127.088Z155.378
X125.838Z155.859
X123.963Z156.554
X122.713Z156.996
X120.838Z157.628
X119.588Z158.031
X118.338Z158.416
X116.463Z158.968
X115.213Z159.315
X113.338Z159.809
X112.088Z160.119
X110.213Z160.558
X108.963Z160.831
X107.088Z161.214
X105.838Z161.451
X103.963Z161.781
X102.088Z162.077
X100.838Z162.26
X99.588Z162.426
X97.713Z162.651
X95.838Z162.843
X94.588Z162.955
X93.338Z163.051
X91.463Z163.174
X89.588Z163.263
X88.338Z163.307
X86.463Z163.346
X85.213Z163.355
X83.338Z163.344
X82.088Z163.318
X80.213Z163.256
X78.338Z163.161
X77.088Z163.083
X75.213Z162.937
X73.338Z162.761
X72.088Z162.628
X70.838Z162.48
X69.588Z162.316
X67.713Z162.048
X65.838Z161.748
X64.588Z161.529
X62.713Z161.175
X61.463Z160.92
X59.588Z160.512
X58.338Z160.221
X56.463Z159.758
X55.213Z159.43
X53.338Z158.91
X52.088Z158.545
X50.213Z157.967
X48.963Z157.563
X47.088Z156.925
X45.838Z156.482
X44.588Z156.02
X42.713Z155.297
X41.463Z154.796
X40.838Z154.535
X39.588Z154.007
X38.338Z153.462
X37.088Z152.9
X35.838Z152.316
X34.588Z151.715
X32.713Z150.781
X31.463Z150.133
X30.213Z149.465
X28.338Z148.426
X27.088Z147.709
X25.838Z146.97
X24.588Z146.208
X23.338Z145.425
X22.088Z144.619
X21.463Z144.208
X20.213Z143.368
X18.963Z142.504
X17.713Z141.615
X16.463Z140.701
X15.213Z139.76
X13.963Z138.792
X12.713Z137.796
X11.463Z136.771
X10.213Z135.716
X8.963Z134.63
X7.713Z133.511
X6.463Z132.359
X5.213Z131.172
X4.588Z130.566
X3.338Z129.326
X2.088Z128.046
X0.838Z126.723
X-0.413Z125.357
X-1.038Z124.661
X-2.288Z123.227
X-2.913Z122.49
X-4.163Z120.985
X-5.413Z119.421
X-6.038Z118.619
X-6.663Z117.799
X-7.1Z117.222
Y110.002
X-6.663Z117.799
X-6.038Z118.619
X-5.413Z119.421
X-4.163Z120.985
X-2.913Z122.49
X-2.288Z123.227
X-1.038Z124.661
X-0.413Z125.357
X0.838Z126.723
X2.088Z128.046
X3.338Z129.326
X4.588Z130.566
X5.213Z131.172
X6.463Z132.359
X7.713Z133.511
X8.963Z134.63
X10.213Z135.716
X11.463Z136.771
X12.713Z137.796
X13.963Z138.792
X15.213Z139.76
X16.463Z140.701
X17.713Z141.615
X18.963Z142.504
X20.213Z143.368
X21.463Z144.208
X22.088Z144.619
X23.338Z145.425
X24.588Z146.208
X25.838Z146.97
X27.088Z147.709
X28.338Z148.426
X30.213Z149.465
X31.463Z150.133
X32.713Z150.781
X34.588Z151.715
X35.838Z152.316
X37.088Z152.9
X38.338Z153.462
X39.588Z154.007
X40.838Z154.535
X41.463Z154.796
X42.713Z155.297
X44.588Z156.02
X45.838Z156.482
X47.088Z156.925
X48.963Z157.563
X50.213Z157.967
X52.088Z158.545
X53.338Z158.91
X55.213Z159.43
X56.463Z159.758
X58.338Z160.221
X59.588Z160.512
X61.463Z160.92
X62.713Z161.175
X64.588Z161.529
X65.838Z161.748
X67.713Z162.048
X69.588Z162.316
X70.838Z162.48
X72.088Z162.628
X73.338Z162.761
X75.213Z162.937
X77.088Z163.083
X78.338Z163.161
X80.213Z163.256
X82.088Z163.318
X83.338Z163.344
X85.213Z163.355
X86.463Z163.346
X88.338Z163.307
X89.588Z163.263
X91.463Z163.174
X93.338Z163.051
X94.588Z162.955
X95.838Z162.843
X97.713Z162.651
X99.588Z162.426
X100.838Z162.26
X102.088Z162.077
X103.963Z161.781
X105.838Z161.451
X107.088Z161.214
X108.963Z160.831
X110.213Z160.558
X112.088Z160.119
X113.338Z159.809
X115.213Z159.315
X116.463Z158.968
X118.338Z158.416
X119.588Z158.031
X120.838Z157.628
X122.713Z156.996
X123.963Z156.554
X125.838Z155.859
X127.088Z155.378
X128.337Z154.876
X130.212Z154.094
X131.462Z153.552
X132.087Z153.271
X133.337Z152.702
X134.587Z152.114
X135.837Z151.509
X137.087Z150.882
X138.337Z150.237
X140.212Z149.234
X141.462Z148.541
X142.712Z147.825
X143.962Z147.088
X145.837Z145.944
X147.087Z145.154
X148.337Z144.342
X149.587Z143.505
X150.837Z142.644
X152.087Z141.759
X153.337Z140.848
X154.587Z139.911
X155.837Z138.947
X157.087Z137.956
X158.337Z136.935
X159.587Z135.886
X160.837Z134.805
X162.087Z133.693
X163.337Z132.547
X164.587Z131.366
X165.837Z130.148
X166.462Z129.525
X167.712Z128.252
X168.962Z126.939
X170.212Z125.58
X170.837Z124.884
X172.087Z123.46
X173.337Z121.985
X174.587Z120.457
X175.212Z119.677
X176.462Z118.063
X177.087Z117.238
X178.081Z115.89
X190.931Z98.172
X191.462Z97.45
X192.087Z96.609
X192.712Z95.786
X193.962Z94.185
X194.9Z93.024
X195.837Z91.896
X197.087Z90.436
X198.337Z89.028
X198.962Z88.342
X200.212Z87.001
X201.462Z85.704
X202.712Z84.451
X203.962Z83.237
X205.212Z82.06
X206.462Z80.919
X207.712Z79.813
X208.962Z78.739
X210.212Z77.698
X211.462Z76.687
X212.712Z75.706
X213.962Z74.753
X215.212Z73.828
X215.837Z73.377
X216.462Z72.93
X217.712Z72.058
X218.962Z71.21
X220.212Z70.39
X221.462Z69.593
X223.337Z68.441
X224.587Z67.7
X225.837Z66.981
X227.087Z66.286
X228.962Z65.281
X230.212Z64.635
X231.462Z64.012
X233.337Z63.112
X234.587Z62.534
X235.837Z61.978
X237.712Z61.176
X238.962Z60.665
X239.587Z60.418
X240.837Z59.931
X242.087Z59.462
X243.337Z59.014
X245.212Z58.368
X246.462Z57.961
X248.337Z57.378
X249.587Z57.012
X251.462Z56.489
X252.712Z56.162
X254.587Z55.698
X256.462Z55.272
X257.712Z55.004
X259.587Z54.634
X260.837Z54.405
X262.712Z54.09
X263.962Z53.899
X265.837Z53.638
X267.712Z53.413
X268.962Z53.278
X270.837Z53.106
X272.087Z53.008
X273.962Z52.889
X275.212Z52.828
X277.087Z52.761
X278.962Z52.728
X280.212Z52.724
X282.087Z52.742
X283.962Z52.795
X285.212Z52.846
X285.837Z52.88
X287.087Z52.952
X288.337Z53.04
X290.212Z53.198
X291.462Z53.323
X293.337Z53.534
X295.212Z53.781
X296.462Z53.962
X298.337Z54.262
X299.587Z54.482
X301.462Z54.837
X302.712Z55.094
X304.587Z55.505
X306.462Z55.954
X307.712Z56.271
X309.587Z56.778
X310.837Z57.134
X312.712Z57.701
X313.962Z58.097
X315.837Z58.726
X317.087Z59.163
X318.337Z59.621
X319.587Z60.096
X320.212Z60.337
X321.462Z60.837
X323.337Z61.62
X324.587Z62.165
X325.837Z62.73
X327.712Z63.61
X328.962Z64.221
X330.212Z64.854
X332.087Z65.837
X333.337Z66.519
X334.587Z67.224
X336.462Z68.321
X337.712Z69.079
X338.962Z69.86
X340.212Z70.667
X341.462Z71.497
X343.337Z72.79
X344.587Z73.682
X345.837Z74.602
X347.087Z75.55
X348.337Z76.526
X349.587Z77.532
X350.837Z78.568
X352.087Z79.636
X353.337Z80.738
X354.587Z81.874
X355.837Z83.046
X357.087Z84.256
X357.712Z84.874
X358.962Z86.142
X360.212Z87.45
X361.462Z88.806
X362.712Z90.209
X363.337Z90.927
X364.587Z92.403
X365.525Z93.546
X366.462Z94.723
X367.712Z96.343
X368.65Z97.6
X369.587Z98.895
X370.525Z100.232
X371.462Z101.613
X372.087Z102.56
X373.025Z104.019
X373.337Z104.519
X373.863Z105.369
X374.388Z106.24
X374.913Z107.123
X375.438Z108.032
X375.439Y105.002Z108.033
X374.913Z107.124
X374.388Z106.24
X373.863Z105.369
X373.337Z104.519
X373.025Z104.019
X372.087Z102.56
X371.462Z101.613
X370.525Z100.232
X369.587Z98.895
X368.65Z97.6
X367.712Z96.343
X366.462Z94.723
X365.525Z93.546
X364.587Z92.403
X363.337Z90.927
X362.712Z90.209
X361.462Z88.806
X360.212Z87.45
X358.962Z86.142
X357.712Z84.874
X357.087Z84.256
X355.837Z83.046
X354.587Z81.874
X353.337Z80.738
X352.087Z79.636
X350.837Z78.568
X349.587Z77.532
X348.337Z76.526
X347.087Z75.55
X345.837Z74.602
X344.587Z73.682
X343.337Z72.79
X341.462Z71.497
X340.212Z70.667
X338.962Z69.86
X337.712Z69.079
X336.462Z68.321
X334.587Z67.224
X333.337Z66.519
X332.087Z65.837
X330.212Z64.854
X328.962Z64.221
X327.712Z63.61
X325.837Z62.73
X324.587Z62.165
X323.337Z61.62
X321.462Z60.837
X320.212Z60.337
X319.587Z60.096
X318.337Z59.621
X317.087Z59.163
X315.837Z58.726
X313.962Z58.097
X312.712Z57.701
X310.837Z57.134
X309.587Z56.778
X307.712Z56.271
X306.462Z55.954
X304.587Z55.505
X302.712Z55.094
X301.462Z54.837
X299.587Z54.482
X298.337Z54.262
X296.462Z53.962
X295.212Z53.781
X293.337Z53.534
X291.462Z53.323
X290.212Z53.198
X288.337Z53.04
X287.087Z52.952
X285.837Z52.88
X285.212Z52.846
X283.962Z52.795
X282.087Z52.742
X280.212Z52.724
X278.962Z52.728
X277.087Z52.761
X275.212Z52.828
X273.962Z52.889
X272.087Z53.008
X270.837Z53.106
X268.962Z53.278
X267.712Z53.413
X265.837Z53.638
X263.962Z53.899
X262.712Z54.09
X260.837Z54.405
X259.587Z54.634
X257.712Z55.004
X256.462Z55.272
X254.587Z55.698
X252.712Z56.162
X251.462Z56.489
X249.587Z57.012
X248.337Z57.378
X246.462Z57.961
X245.212Z58.368
X243.337Z59.014
X242.087Z59.462
X240.837Z59.931
X239.587Z60.418
X238.962Z60.665
X237.712Z61.176
X235.837Z61.978
X234.587Z62.534
X233.337Z63.112
X231.462Z64.012
X230.212Z64.635
X228.962Z65.281
X227.087Z66.286
X225.837Z66.981
X224.587Z67.7
X223.337Z68.441
X221.462Z69.593
X220.212Z70.39
X218.962Z71.21
X217.712Z72.058
X216.462Z72.93
X215.837Z73.377
X215.212Z73.828
X213.962Z74.753
X212.712Z75.706
X211.462Z76.687
X210.212Z77.698
X208.962Z78.739
X207.712Z79.813
X206.462Z80.919
X205.212Z82.06
X203.962Z83.237
X202.712Z84.451
X201.462Z85.704
X200.212Z87.001
X198.962Z88.342
X198.337Z89.028
X197.087Z90.436
X195.837Z91.896
X194.9Z93.024
X193.962Z94.185
X192.712Z95.786
X192.087Z96.609
X191.462Z97.45
X190.931Z98.172
X178.081Z115.89
X177.087Z117.238
X176.462Z118.063
X175.212Z119.677
X174.587Z120.457
X173.337Z121.985
X172.087Z123.46
X170.837Z124.884
X170.212Z125.58
X168.962Z126.939
X167.712Z128.252
X166.462Z129.525
X165.837Z130.148
X164.587Z131.366
X163.337Z132.547
X162.087Z133.693
X160.837Z134.805
X159.587Z135.886
X158.337Z136.935
X157.087Z137.956
X155.837Z138.947
X154.587Z139.911
X153.337Z140.848
X152.087Z141.759
X150.837Z142.644
X149.587Z143.505
X148.337Z144.342
X147.087Z145.154
X145.837Z145.944
X143.962Z147.088
X142.712Z147.825
X141.462Z148.541
X140.212Z149.234
X138.337Z150.237
X137.087Z150.882
X135.837Z151.509
X134.587Z152.114
X133.337Z152.702
X132.087Z153.271
X131.462Z153.552
X130.212Z154.094
X128.337Z154.876
X127.088Z155.378
X125.838Z155.859
X123.963Z156.554
X122.713Z156.996
X120.838Z157.628
X119.588Z158.031
X118.338Z158.416
X116.463Z158.968
X115.213Z159.315
X113.338Z159.809
X112.088Z160.119
X110.213Z160.558
X108.963Z160.831
X107.088Z161.214
X105.838Z161.451
X103.963Z161.781
X102.088Z162.077
X100.838Z162.26
X99.588Z162.426
X97.713Z162.651
X95.838Z162.843
X94.588Z162.955
X93.338Z163.051
X91.463Z163.174
X89.588Z163.263
X88.338Z163.307
X86.463Z163.346
X85.213Z163.355
X83.338Z163.344
X82.088Z163.318
X80.213Z163.256
X78.338Z163.161
X77.088Z163.083
X75.213Z162.937
X73.338Z162.761
X72.088Z162.628
X70.838Z162.48
X69.588Z162.316
X67.713Z162.048
X65.838Z161.748
X64.588Z161.529
X62.713Z161.175
X61.463Z160.92
X59.588Z160.512
X58.338Z160.221
X56.463Z159.758
X55.213Z159.43
X53.338Z158.91
X52.088Z158.545
X50.213Z157.967
X48.963Z157.563
X47.088Z156.925
X45.838Z156.482
X44.588Z156.02
X42.713Z155.297
X41.463Z154.796
X40.838Z154.535
X39.588Z154.007
X38.338Z153.462
X37.088Z152.9
X35.838Z152.316
X34.588Z151.715
X32.713Z150.781
X31.463Z150.133
X30.213Z149.465
X28.338Z148.426
X27.088Z147.709
X25.838Z146.97
X24.588Z146.208
X23.338Z145.425
X22.088Z144.619
X21.463Z144.208
X20.213Z143.368
X18.963Z142.504
X17.713Z141.615
X16.463Z140.701
X15.213Z139.76
X13.963Z138.792
X12.713Z137.796
X11.463Z136.771
X10.213Z135.716
X8.963Z134.63
X7.713Z133.511
X6.463Z132.359
X5.213Z131.172
X4.588Z130.566
X3.338Z129.326
X2.088Z128.046
X0.838Z126.723
X-0.413Z125.357
X-1.038Z124.661
X-2.288Z123.227
X-2.913Z122.49
X-4.163Z120.985
X-5.413Z119.421
X-6.038Z118.619
X-6.663Z117.799
X-7.1Z117.222
Y100.002
X-6.663Z117.799
X-6.038Z118.619
X-5.413Z119.421
X-4.163Z120.985
X-2.913Z122.49
X-2.288Z123.227
X-1.038Z124.661
X-0.413Z125.357
X0.838Z126.723
X2.088Z128.046
X3.338Z129.326
X4.588Z130.566
X5.213Z131.172
X6.463Z132.359
X7.713Z133.511
X8.963Z134.63
X10.213Z135.716
X11.463Z136.771
X12.713Z137.796
X13.963Z138.792
X15.213Z139.76
X16.463Z140.701
X17.713Z141.615
X18.963Z142.504
X20.213Z143.368
X21.463Z144.208
X22.088Z144.619
X23.338Z145.425
X24.588Z146.208
X25.838Z146.97
X27.088Z147.709
X28.338Z148.426
X30.213Z149.465
X31.463Z150.133
X32.713Z150.781
X34.588Z151.715
X35.838Z152.316
X37.088Z152.9
X38.338Z153.462
X39.588Z154.007
X40.838Z154.535
X41.463Z154.796
X42.713Z155.297
X44.588Z156.02
X45.838Z156.482
X47.088Z156.925
X48.963Z157.563
X50.213Z157.967
X52.088Z158.545
X53.338Z158.91
X55.213Z159.43
X56.463Z159.758
X58.338Z160.221
X59.588Z160.512
X61.463Z160.92
X62.713Z161.175
X64.588Z161.529
X65.838Z161.748
X67.713Z162.048
X69.588Z162.316
X70.838Z162.48
X72.088Z162.628
X73.338Z162.761
X75.213Z162.937
X77.088Z163.083
X78.338Z163.161
X80.213Z163.256
X82.088Z163.318
X83.338Z163.344
X85.213Z163.355
X86.463Z163.346
X88.338Z163.307
X89.588Z163.263
X91.463Z163.174
X93.338Z163.051
X94.588Z162.955
X95.838Z162.843
X97.713Z162.651
X99.588Z162.426
X100.838Z162.26
X102.088Z162.077
X103.963Z161.781
X105.838Z161.451
X107.088Z161.214
X108.963Z160.831
X110.213Z160.558
X112.088Z160.119
X113.338Z159.809
X115.213Z159.315
X116.463Z158.968
X118.338Z158.416
X119.588Z158.031
X120.838Z157.628
X122.713Z156.996
X123.963Z156.554
X125.838Z155.859
X127.088Z155.378
X128.337Z154.876
X130.212Z154.094
X131.462Z153.552
X132.087Z153.271
X133.337Z152.702
X134.587Z152.114
X135.837Z151.509
X137.087Z150.882
X138.337Z150.237
X140.212Z149.234
X141.462Z148.541
X142.712Z147.825
X143.962Z147.088
X145.837Z145.944
X147.087Z145.154
X148.337Z144.342
X149.587Z143.505
X150.837Z142.644
X152.087Z141.759
X153.337Z140.848
X154.587Z139.911
X155.837Z138.947
X157.087Z137.956
X158.337Z136.935
X159.587Z135.886
X160.837Z134.805
X162.087Z133.693
X163.337Z132.547
X164.587Z131.366
X165.837Z130.148
X166.462Z129.525
X167.712Z128.252
X168.962Z126.939
X170.212Z125.58
X170.837Z124.884
X172.087Z123.46
X173.337Z121.985
X174.587Z120.457
X175.212Z119.677
X176.462Z118.063
X177.087Z117.238
X178.081Z115.89
X190.931Z98.172
X191.462Z97.45
X192.087Z96.609
X192.712Z95.786
X193.962Z94.185
X194.9Z93.024
X195.837Z91.896
X197.087Z90.436
X198.337Z89.028
X198.962Z88.342
X200.212Z87.001
X201.462Z85.704
X202.712Z84.451
X203.962Z83.237
X205.212Z82.06
X206.462Z80.919
X207.712Z79.813
X208.962Z78.739
X210.212Z77.698
X211.462Z76.687
X212.712Z75.706
X213.962Z74.753
X215.212Z73.828
X215.837Z73.377
X216.462Z72.93
X217.712Z72.058
X218.962Z71.21
X220.212Z70.39
X221.462Z69.593
X223.337Z68.441
X224.587Z67.7
X225.837Z66.981
X227.087Z66.286
X228.962Z65.281
X230.212Z64.635
X231.462Z64.012
X233.337Z63.112
X234.587Z62.534
X235.837Z61.978
X237.712Z61.176
X238.962Z60.665
X239.587Z60.418
X240.837Z59.931
X242.087Z59.462
X243.337Z59.014
X245.212Z58.368
X246.462Z57.961
X248.337Z57.378
X249.587Z57.012
X251.462Z56.489
X252.712Z56.162
X254.587Z55.698
X256.462Z55.272
X257.712Z55.004
X259.587Z54.634
X260.837Z54.405
X262.712Z54.09
X263.962Z53.899
X265.837Z53.638
X267.712Z53.413
X268.962Z53.278
X270.837Z53.106
X272.087Z53.008
X273.962Z52.889
X275.212Z52.828
X277.087Z52.761
X278.962Z52.728
X280.212Z52.724
X282.087Z52.742
X283.962Z52.795
X285.212Z52.846
X285.837Z52.88
X287.087Z52.952
X288.337Z53.04
X290.212Z53.198
X291.462Z53.323
X293.337Z53.534
X295.212Z53.781
X296.462Z53.962
X298.337Z54.262
X299.587Z54.482
X301.462Z54.837
X302.712Z55.094
X304.587Z55.505
X306.462Z55.954
X307.712Z56.271
X309.587Z56.778
X310.837Z57.134
X312.712Z57.701
X313.962Z58.097
X315.837Z58.726
X317.087Z59.163
X318.337Z59.621
X319.587Z60.096
X320.212Z60.337
X321.462Z60.837
X323.337Z61.62
X324.587Z62.165
X325.837Z62.73
X327.712Z63.61
X328.962Z64.221
X330.212Z64.854
X332.087Z65.837
X333.337Z66.519
X334.587Z67.224
X336.462Z68.321
X337.712Z69.079
X338.962Z69.86
X340.212Z70.667
X341.462Z71.497
X343.337Z72.79
X344.587Z73.682
X345.837Z74.602
X347.087Z75.55
X348.337Z76.526
X349.587Z77.532
X350.837Z78.568
X352.087Z79.636
X353.337Z80.738
X354.587Z81.874
X355.837Z83.046
X357.087Z84.256
X357.712Z84.874
X358.962Z86.142
X360.212Z87.45
X361.462Z88.806
X362.712Z90.209
X363.337Z90.927
X364.587Z92.403
X365.525Z93.546
X366.462Z94.723
X367.712Z96.343
X368.65Z97.6
X369.587Z98.895
X370.525Z100.232
X371.462Z101.613
X372.087Z102.56
X373.025Z104.019
X373.337Z104.519
X373.863Z105.369
X374.388Z106.24
X374.913Z107.124
X375.439Z108.033
Y95.002Z108.034
X374.914Z107.124
X374.388Z106.241
X373.863Z105.369
X373.337Z104.519
X373.025Z104.019
X372.087Z102.56
X371.462Z101.613
X370.525Z100.232
X369.587Z98.895
X368.65Z97.6
X367.712Z96.343
X366.462Z94.723
X365.525Z93.546
X364.587Z92.403
X363.337Z90.927
X362.712Z90.209
X361.462Z88.806
X360.212Z87.45
X358.962Z86.142
X357.712Z84.874
X357.087Z84.256
X355.837Z83.046
X354.587Z81.874
X353.337Z80.738
X352.087Z79.636
X350.837Z78.568
X349.587Z77.532
X348.337Z76.526
X347.087Z75.55
X345.837Z74.602
X344.587Z73.682
X343.337Z72.79
X341.462Z71.497
X340.212Z70.667
X338.962Z69.86
X337.712Z69.079
X336.462Z68.321
X334.587Z67.224
X333.337Z66.519
X332.087Z65.837
X330.212Z64.854
X328.962Z64.221
X327.712Z63.61
X325.837Z62.73
X324.587Z62.165
X323.337Z61.62
X321.462Z60.837
X320.212Z60.337
X319.587Z60.096
X318.337Z59.621
X317.087Z59.163
X315.837Z58.726
X313.962Z58.097
X312.712Z57.701
X310.837Z57.134
X309.587Z56.778
X307.712Z56.271
X306.462Z55.954
X304.587Z55.505
X302.712Z55.094
X301.462Z54.837
X299.587Z54.482
X298.337Z54.262
X296.462Z53.962
X295.212Z53.781
X293.337Z53.534
X291.462Z53.323
X290.212Z53.198
X288.337Z53.04
X287.087Z52.952
X285.837Z52.88
X285.212Z52.846
X283.962Z52.795
X282.087Z52.742
X280.212Z52.724
X278.962Z52.728
X277.087Z52.761
X275.212Z52.828
X273.962Z52.889
X272.087Z53.008
X270.837Z53.106
X268.962Z53.278
X267.712Z53.413
X265.837Z53.638
X263.962Z53.899
X262.712Z54.09
X260.837Z54.405
X259.587Z54.634
X257.712Z55.004
X256.462Z55.272
X254.587Z55.698
X252.712Z56.162
X251.462Z56.489
X249.587Z57.012
X248.337Z57.378
X246.462Z57.961
X245.212Z58.368
X243.337Z59.014
X242.087Z59.462
X240.837Z59.931
X239.587Z60.418
X238.962Z60.665
X237.712Z61.176
X235.837Z61.978
X234.587Z62.534
X233.337Z63.112
X231.462Z64.012
X230.212Z64.635
X228.962Z65.281
X227.087Z66.286
X225.837Z66.981
X224.587Z67.7
X223.337Z68.441
X221.462Z69.593
X220.212Z70.39
X218.962Z71.21
X217.712Z72.058
X216.462Z72.93
X215.837Z73.377
X215.212Z73.828
X213.962Z74.753
X212.712Z75.706
X211.462Z76.687
X210.212Z77.698
X208.962Z78.739
X207.712Z79.813
X206.462Z80.919
X205.212Z82.06
X203.962Z83.237
X202.712Z84.451
X201.462Z85.704
X200.212Z87.001
X198.962Z88.342
X198.337Z89.028
X197.087Z90.436
X195.837Z91.896
X194.9Z93.024
X193.962Z94.185
X192.712Z95.786
X192.087Z96.609
X191.462Z97.45
X190.931Z98.172
X178.081Z115.89
X177.087Z117.238
X176.462Z118.063
X175.212Z119.677
X174.587Z120.457
X173.337Z121.985
X172.087Z123.46
X170.837Z124.884
X170.212Z125.58
X168.962Z126.939
X167.712Z128.252
X166.462Z129.525
X165.837Z130.148
X164.587Z131.366
X163.337Z132.547
X162.087Z133.693
X160.837Z134.805
X159.587Z135.886
X158.337Z136.935
X157.087Z137.956
X155.837Z138.947
X154.587Z139.911
X153.337Z140.848
X152.087Z141.759
X150.837Z142.644
X149.587Z143.505
X148.337Z144.342
X147.087Z145.154
X145.837Z145.944
X143.962Z147.088
X142.712Z147.825
X141.462Z148.541
X140.212Z149.234
X138.337Z150.237
X137.087Z150.882
X135.837Z151.509
X134.587Z152.114
X133.337Z152.702
X132.087Z153.271
X131.462Z153.552
X130.212Z154.094
X128.337Z154.876
X127.088Z155.378
X125.838Z155.859
X123.963Z156.554
X122.713Z156.996
X120.838Z157.628
X119.588Z158.031
X118.338Z158.416
X116.463Z158.968
X115.213Z159.315
X113.338Z159.809
X112.088Z160.119
X110.213Z160.558
X108.963Z160.831
X107.088Z161.214
X105.838Z161.451
X103.963Z161.781
X102.088Z162.077
X100.838Z162.26
X99.588Z162.426
X97.713Z162.651
X95.838Z162.843
X94.588Z162.955
X93.338Z163.051
X91.463Z163.174
X89.588Z163.263
X88.338Z163.307
X86.463Z163.346
X85.213Z163.355
X83.338Z163.344
X82.088Z163.318
X80.213Z163.256
X78.338Z163.161
X77.088Z163.083
X75.213Z162.937
X73.338Z162.761
X72.088Z162.628
X70.838Z162.48
X69.588Z162.316
X67.713Z162.048
X65.838Z161.748
X64.588Z161.529
X62.713Z161.175
X61.463Z160.92
X59.588Z160.512
X58.338Z160.221
X56.463Z159.758
X55.213Z159.43
X53.338Z158.91
X52.088Z158.545
X50.213Z157.967
X48.963Z157.563
X47.088Z156.925
X45.838Z156.482
X44.588Z156.02
X42.713Z155.297
X41.463Z154.796
X40.838Z154.535
X39.588Z154.007
X38.338Z153.462
X37.088Z152.9
X35.838Z152.316
X34.588Z151.715
X32.713Z150.781
X31.463Z150.133
X30.213Z149.465
X28.338Z148.426
X27.088Z147.709
X25.838Z146.97
X24.588Z146.208
X23.338Z145.425
X22.088Z144.619
X21.463Z144.208
X20.213Z143.368
X18.963Z142.504
X17.713Z141.615
X16.463Z140.701
X15.213Z139.76
X13.963Z138.792
X12.713Z137.796
X11.463Z136.771
X10.213Z135.716
X8.963Z134.63
X7.713Z133.511
X6.463Z132.359
X5.213Z131.172
X4.588Z130.566
X3.338Z129.326
X2.088Z128.046
X0.838Z126.723
X-0.413Z125.357
X-1.038Z124.661
X-2.288Z123.227
X-2.913Z122.49
X-4.163Z120.985
X-5.413Z119.421
X-6.038Z118.619
X-6.663Z117.799
X-7.1Z117.222
Y90.002
X-6.663Z117.799
X-6.038Z118.619
X-5.413Z119.421
X-4.163Z120.985
X-2.913Z122.49
X-2.288Z123.227
X-1.038Z124.661
X-0.413Z125.357
X0.838Z126.723
X2.088Z128.046
X3.338Z129.326
X4.588Z130.566
X5.213Z131.172
X6.463Z132.359
X7.713Z133.511
X8.963Z134.63
X10.213Z135.716
X11.463Z136.771
X12.713Z137.796
X13.963Z138.792
X15.213Z139.76
X16.463Z140.701
X17.713Z141.615
X18.963Z142.504
X20.213Z143.368
X21.463Z144.208
X22.088Z144.619
X23.338Z145.425
X24.588Z146.208
X25.838Z146.97
X27.088Z147.709
X28.338Z148.426
X30.213Z149.465
X31.463Z150.133
X32.713Z150.781
X34.588Z151.715
X35.838Z152.316
X37.088Z152.9
X38.338Z153.462
X39.588Z154.007
X40.838Z154.535
X41.463Z154.796
X42.713Z155.297
X44.588Z156.02
X45.838Z156.482
X47.088Z156.925
X48.963Z157.563
X50.213Z157.967
X52.088Z158.545
X53.338Z158.91
X55.213Z159.43
X56.463Z159.758
X58.338Z160.221
X59.588Z160.512
X61.463Z160.92
X62.713Z161.175
X64.588Z161.529
X65.838Z161.748
X67.713Z162.048
X69.588Z162.316
X70.838Z162.48
X72.088Z162.628
X73.338Z162.761
X75.213Z162.937
X77.088Z163.083
X78.338Z163.161
X80.213Z163.256
X82.088Z163.318
X83.338Z163.344
X85.213Z163.355
X86.463Z163.346
X88.338Z163.307
X89.588Z163.263
X91.463Z163.174
X93.338Z163.051
X94.588Z162.955
X95.838Z162.843
X97.713Z162.651
X99.588Z162.426
X100.838Z162.26
X102.088Z162.077
X103.963Z161.781
X105.838Z161.451
X107.088Z161.214
X108.963Z160.831
X110.213Z160.558
X112.088Z160.119
X113.338Z159.809
X115.213Z159.315
X116.463Z158.968
X118.338Z158.416
X119.588Z158.031
X120.838Z157.628
X122.713Z156.996
X123.963Z156.554
X125.838Z155.859
X127.088Z155.378
X128.337Z154.876
X130.212Z154.094
X131.462Z153.552
X132.087Z153.271
X133.337Z152.702
X134.587Z152.114
X135.837Z151.509
X137.087Z150.882
X138.337Z150.237
X140.212Z149.234
X141.462Z148.541
X142.712Z147.825
X143.962Z147.088
X145.837Z145.944
X147.087Z145.154
X148.337Z144.342
X149.587Z143.505
X150.837Z142.644
X152.087Z141.759
X153.337Z140.848
X154.587Z139.911
X155.837Z138.947
X157.087Z137.956
X158.337Z136.935
X159.587Z135.886
X160.837Z134.805
X162.087Z133.693
X163.337Z132.547
X164.587Z131.366
X165.837Z130.148
X166.462Z129.525
X167.712Z128.252
X168.962Z126.939
X170.212Z125.58
X170.837Z124.884
X172.087Z123.46
X173.337Z121.985
X174.587Z120.457
X175.212Z119.677
X176.462Z118.063
X177.087Z117.238
X178.081Z115.89
X190.931Z98.172
X191.462Z97.45
X192.087Z96.609
X192.712Z95.786
X193.962Z94.185
X194.9Z93.024
X195.837Z91.896
X197.087Z90.436
X198.337Z89.028
X198.962Z88.342
X200.212Z87.001
X201.462Z85.704
X202.712Z84.451
X203.962Z83.237
X205.212Z82.06
X206.462Z80.919
X207.712Z79.813
X208.962Z78.739
X210.212Z77.698
X211.462Z76.687
X212.712Z75.706
X213.962Z74.753
X215.212Z73.828
X215.837Z73.377
X216.462Z72.93
X217.712Z72.058
X218.962Z71.21
X220.212Z70.39
X221.462Z69.593
X223.337Z68.441
X224.587Z67.7
X225.837Z66.981
X227.087Z66.286
X228.962Z65.281
X230.212Z64.635
X231.462Z64.012
X233.337Z63.112
X234.587Z62.534
X235.837Z61.978
X237.712Z61.176
X238.962Z60.665
X239.587Z60.418
X240.837Z59.931
X242.087Z59.462
X243.337Z59.014
X245.212Z58.368
X246.462Z57.961
X248.337Z57.378
X249.587Z57.012
X251.462Z56.489
X252.712Z56.162
X254.587Z55.698
X256.462Z55.272
X257.712Z55.004
X259.587Z54.634
X260.837Z54.405
X262.712Z54.09
X263.962Z53.899
X265.837Z53.638
X267.712Z53.413
X268.962Z53.278
X270.837Z53.106
X272.087Z53.008
X273.962Z52.889
X275.212Z52.828
X277.087Z52.761
X278.962Z52.728
X280.212Z52.724
X282.087Z52.742
X283.962Z52.795
X285.212Z52.846
X285.837Z52.88
X287.087Z52.952
X288.337Z53.04
X290.212Z53.198
X291.462Z53.323
X293.337Z53.534
X295.212Z53.781
X296.462Z53.962
X298.337Z54.262
X299.587Z54.482
X301.462Z54.837
X302.712Z55.094
X304.587Z55.505
X306.462Z55.954
X307.712Z56.271
X309.587Z56.778
X310.837Z57.134
X312.712Z57.701
X313.962Z58.097
X315.837Z58.726
X317.087Z59.163
X318.337Z59.621
X319.587Z60.096
X320.212Z60.337
X321.462Z60.837
X323.337Z61.62
X324.587Z62.165
X325.837Z62.73
X327.712Z63.61
X328.962Z64.221
X330.212Z64.854
X332.087Z65.837
X333.337Z66.519
X334.587Z67.224
X336.462Z68.321
X337.712Z69.079
X338.962Z69.86
X340.212Z70.667
X341.462Z71.497
X343.337Z72.79
X344.587Z73.682
X345.837Z74.602
X347.087Z75.55
X348.337Z76.526
X349.587Z77.532
X350.837Z78.568
X352.087Z79.636
X353.337Z80.738
X354.587Z81.874
X355.837Z83.046
X357.087Z84.256
X357.712Z84.874
X358.962Z86.142
X360.212Z87.45
X361.462Z88.806
X362.712Z90.209
X363.337Z90.927
X364.587Z92.403
X365.525Z93.546
X366.462Z94.723
X367.712Z96.343
X368.65Z97.6
X369.587Z98.895
X370.525Z100.232
X371.462Z101.613
X372.087Z102.56
X373.025Z104.019
X373.337Z104.519
X373.863Z105.369
X374.388Z106.241
X374.914Z107.125
X375.439Z108.034
X375.44Y85.002
X374.914Z107.125
X374.389Z106.241
X373.863Z105.369
X373.337Z104.519
X373.025Z104.019
X372.087Z102.56
X371.462Z101.613
X370.525Z100.232
X369.587Z98.895
X368.65Z97.6
X367.712Z96.343
X366.462Z94.723
X365.525Z93.546
X364.587Z92.403
X363.337Z90.927
X362.712Z90.209
X361.462Z88.806
X360.212Z87.45
X358.962Z86.142
X357.712Z84.874
X357.087Z84.256
X355.837Z83.046
X354.587Z81.874
X353.337Z80.738
X352.087Z79.636
X350.837Z78.568
X349.587Z77.532
X348.337Z76.526
X347.087Z75.55
X345.837Z74.602
X344.587Z73.682
X343.337Z72.79
X341.462Z71.497
X340.212Z70.667
X338.962Z69.86
X337.712Z69.079
X336.462Z68.321
X334.587Z67.224
X333.337Z66.519
X332.087Z65.837
X330.212Z64.854
X328.962Z64.221
X327.712Z63.61
X325.837Z62.73
X324.587Z62.165
X323.337Z61.62
X321.462Z60.837
X320.212Z60.337
X319.587Z60.096
X318.337Z59.621
X317.087Z59.163
X315.837Z58.726
X313.962Z58.097
X312.712Z57.701
X310.837Z57.134
X309.587Z56.778
X307.712Z56.271
X306.462Z55.954
X304.587Z55.505
X302.712Z55.094
X301.462Z54.837
X299.587Z54.482
X298.337Z54.262
X296.462Z53.962
X295.212Z53.781
X293.337Z53.534
X291.462Z53.323
X290.212Z53.198
X288.337Z53.04
X287.087Z52.952
X285.837Z52.88
X285.212Z52.846
X283.962Z52.795
X282.087Z52.742
X280.212Z52.724
X278.962Z52.728
X277.087Z52.761
X275.212Z52.828
X273.962Z52.889
X272.087Z53.008
X270.837Z53.106
X268.962Z53.278
X267.712Z53.413
X265.837Z53.638
X263.962Z53.899
X262.712Z54.09
X260.837Z54.405
X259.587Z54.634
X257.712Z55.004
X256.462Z55.272
X254.587Z55.698
X252.712Z56.162
X251.462Z56.489
X249.587Z57.012
X248.337Z57.378
X246.462Z57.961
X245.212Z58.368
X243.337Z59.014
X242.087Z59.462
X240.837Z59.931
X239.587Z60.418
X238.962Z60.665
X237.712Z61.176
X235.837Z61.978
X234.587Z62.534
X233.337Z63.112
X231.462Z64.012
X230.212Z64.635
X228.962Z65.281
X227.087Z66.286
X225.837Z66.981
X224.587Z67.7
X223.337Z68.441
X221.462Z69.593
X220.212Z70.39
X218.962Z71.21
X217.712Z72.058
X216.462Z72.93
X215.837Z73.377
X215.212Z73.828
X213.962Z74.753
X212.712Z75.706
X211.462Z76.687
X210.212Z77.698
X208.962Z78.739
X207.712Z79.813
X206.462Z80.919
X205.212Z82.06
X203.962Z83.237
X202.712Z84.451
X201.462Z85.704
X200.212Z87.001
X198.962Z88.342
X198.337Z89.028
X197.087Z90.436
X195.837Z91.896
X194.9Z93.024
X193.962Z94.185
X192.712Z95.786
X192.087Z96.609
X191.462Z97.45
X190.931Z98.172
X178.081Z115.89
X177.087Z117.238
X176.462Z118.063
X175.212Z119.677
X174.587Z120.457
X173.337Z121.985
X172.087Z123.46
X170.837Z124.884
X170.212Z125.58
X168.962Z126.939
X167.712Z128.252
X166.462Z129.525
X165.837Z130.148
X164.587Z131.366
X163.337Z132.547
X162.087Z133.693
X160.837Z134.805
X159.587Z135.886
X158.337Z136.935
X157.087Z137.956
X155.837Z138.947
X154.587Z139.911
X153.337Z140.848
X152.087Z141.759
X150.837Z142.644
X149.587Z143.505
X148.337Z144.342
X147.087Z145.154
X145.837Z145.944
X143.962Z147.088
X142.712Z147.825
X141.462Z148.541
X140.212Z149.234
X138.337Z150.237
X137.087Z150.882
X135.837Z151.509
X134.587Z152.114
X133.337Z152.702
X132.087Z153.271
X131.462Z153.552
X130.212Z154.094
X128.337Z154.876
X127.088Z155.378
X125.838Z155.859
X123.963Z156.554
X122.713Z156.996
X120.838Z157.628
X119.588Z158.031
X118.338Z158.416
X116.463Z158.968
X115.213Z159.315
X113.338Z159.809
X112.088Z160.119
X110.213Z160.558
X108.963Z160.831
X107.088Z161.214
X105.838Z161.451
X103.963Z161.781
X102.088Z162.077
X100.838Z162.26
X99.588Z162.426
X97.713Z162.651
X95.838Z162.843
X94.588Z162.955
X93.338Z163.051
X91.463Z163.174
X89.588Z163.263
X88.338Z163.307
X86.463Z163.346
X85.213Z163.355
X83.338Z163.344
X82.088Z163.318
X80.213Z163.256
X78.338Z163.161
X77.088Z163.083
X75.213Z162.937
X73.338Z162.761
X72.088Z162.628
X70.838Z162.48
X69.588Z162.316
X67.713Z162.048
X65.838Z161.748
X64.588Z161.529
X62.713Z161.175
X61.463Z160.92
X59.588Z160.512
X58.338Z160.221
X56.463Z159.758
X55.213Z159.43
X53.338Z158.91
X52.088Z158.545
X50.213Z157.967
X48.963Z157.563
X47.088Z156.925
X45.838Z156.482
X44.588Z156.02
X42.713Z155.297
X41.463Z154.796
X40.838Z154.535
X39.588Z154.007
X38.338Z153.462
X37.088Z152.9
X35.838Z152.316
X34.588Z151.715
X32.713Z150.781
X31.463Z150.133
X30.213Z149.465
X28.338Z148.426
X27.088Z147.709
X25.838Z146.97
X24.588Z146.208
X23.338Z145.425
X22.088Z144.619
X21.463Z144.208
X20.213Z143.368
X18.963Z142.504
X17.713Z141.615
X16.463Z140.701
X15.213Z139.76
X13.963Z138.792
X12.713Z137.796
X11.463Z136.771
X10.213Z135.716
X8.963Z134.63
X7.713Z133.511
X6.463Z132.359
X5.213Z131.172
X4.588Z130.566
X3.338Z129.326
X2.088Z128.046
X0.838Z126.723
X-0.413Z125.357
X-1.038Z124.661
X-2.288Z123.227
X-2.913Z122.49
X-4.163Z120.985
X-5.413Z119.421
X-6.038Z118.619
X-6.663Z117.799
X-7.1Z117.222
Y80.002
X-6.663Z117.799
X-6.038Z118.619
X-5.413Z119.421
X-4.163Z120.985
X-2.913Z122.49
X-2.288Z123.227
X-1.038Z124.661
X-0.413Z125.357
X0.838Z126.723
X2.088Z128.046
X3.338Z129.326
X4.588Z130.566
X5.213Z131.172
X6.463Z132.359
X7.713Z133.511
X8.963Z134.63
X10.213Z135.716
X11.463Z136.771
X12.713Z137.796
X13.963Z138.792
X15.213Z139.76
X16.463Z140.701
X17.713Z141.615
X18.963Z142.504
X20.213Z143.368
X21.463Z144.208
X22.088Z144.619
X23.338Z145.425
X24.588Z146.208
X25.838Z146.97
X27.088Z147.709
X28.338Z148.426
X30.213Z149.465
X31.463Z150.133
X32.713Z150.781
X34.588Z151.715
X35.838Z152.316
X37.088Z152.9
X38.338Z153.462
X39.588Z154.007
X40.838Z154.535
X41.463Z154.796
X42.713Z155.297
X44.588Z156.02
X45.838Z156.482
X47.088Z156.925
X48.963Z157.563
X50.213Z157.967
X52.088Z158.545
X53.338Z158.91
X55.213Z159.43
X56.463Z159.758
X58.338Z160.221
X59.588Z160.512
X61.463Z160.92
X62.713Z161.175
X64.588Z161.529
X65.838Z161.748
X67.713Z162.048
X69.588Z162.316
X70.838Z162.48
X72.088Z162.628
X73.338Z162.761
X75.213Z162.937
X77.088Z163.083
X78.338Z163.161
X80.213Z163.256
X82.088Z163.318
X83.338Z163.344
X85.213Z163.355
X86.463Z163.346
X88.338Z163.307
X89.588Z163.263
X91.463Z163.174
X93.338Z163.051
X94.588Z162.955
X95.838Z162.843
X97.713Z162.651
X99.588Z162.426
X100.838Z162.26
X102.088Z162.077
X103.963Z161.781
X105.838Z161.451
X107.088Z161.214
X108.963Z160.831
X110.213Z160.558
X112.088Z160.119
X113.338Z159.809
X115.213Z159.315
X116.463Z158.968
X118.338Z158.416
X119.588Z158.031
X120.838Z157.628
X122.713Z156.996
X123.963Z156.554
X125.838Z155.859
X127.088Z155.378
X128.337Z154.876
X130.212Z154.094
X131.462Z153.552
X132.087Z153.271
X133.337Z152.702
X134.587Z152.114
X135.837Z151.509
X137.087Z150.882
X138.337Z150.237
X140.212Z149.234
X141.462Z148.541
X142.712Z147.825
X143.962Z147.088
X145.837Z145.944
X147.087Z145.154
X148.337Z144.342
X149.587Z143.505
X150.837Z142.644
X152.087Z141.759
X153.337Z140.848
X154.587Z139.911
X155.837Z138.947
X157.087Z137.956
X158.337Z136.935
X159.587Z135.886
X160.837Z134.805
X162.087Z133.693
X163.337Z132.547
X164.587Z131.366
X165.837Z130.148
X166.462Z129.525
X167.712Z128.252
X168.962Z126.939
X170.212Z125.58
X170.837Z124.884
X172.087Z123.46
X173.337Z121.985
X174.587Z120.457
X175.212Z119.677
X176.462Z118.063
X177.087Z117.238
X178.081Z115.89
X190.931Z98.172
X191.462Z97.45
X192.087Z96.609
X192.712Z95.786
X193.962Z94.185
X194.9Z93.024
X195.837Z91.896
X197.087Z90.436
X198.337Z89.028
X198.962Z88.342
X200.212Z87.001
X201.462Z85.704
X202.712Z84.451
X203.962Z83.237
X205.212Z82.06
X206.462Z80.919
X207.712Z79.813
X208.962Z78.739
X210.212Z77.698
X211.462Z76.687
X212.712Z75.706
X213.962Z74.753
X215.212Z73.828
X215.837Z73.377
X216.462Z72.93
X217.712Z72.058
X218.962Z71.21
X220.212Z70.39
X221.462Z69.593
X223.337Z68.441
X224.587Z67.7
X225.837Z66.981
X227.087Z66.286
X228.962Z65.281
X230.212Z64.635
X231.462Z64.012
X233.337Z63.112
X234.587Z62.534
X235.837Z61.978
X237.712Z61.176
X238.962Z60.665
X239.587Z60.418
X240.837Z59.931
X242.087Z59.462
X243.337Z59.014
X245.212Z58.368
X246.462Z57.961
X248.337Z57.378
X249.587Z57.012
X251.462Z56.489
X252.712Z56.162
X254.587Z55.698
X256.462Z55.272
X257.712Z55.004
X259.587Z54.634
X260.837Z54.405
X262.712Z54.09
X263.962Z53.899
X265.837Z53.638
X267.712Z53.413
X268.962Z53.278
X270.837Z53.106
X272.087Z53.008
X273.962Z52.889
X275.212Z52.828
X277.087Z52.761
X278.962Z52.728
X280.212Z52.724
X282.087Z52.742
X283.962Z52.795
X285.212Z52.846
X285.837Z52.88
X287.087Z52.952
X288.337Z53.04
X290.212Z53.198
X291.462Z53.323
X293.337Z53.534
X295.212Z53.781
X296.462Z53.962
X298.337Z54.262
X299.587Z54.482
X301.462Z54.837
X302.712Z55.094
X304.587Z55.505
X306.462Z55.954
X307.712Z56.271
X309.587Z56.778
X310.837Z57.134
X312.712Z57.701
X313.962Z58.097
X315.837Z58.726
X317.087Z59.163
X318.337Z59.621
X319.587Z60.096
X320.212Z60.337
X321.462Z60.837
X323.337Z61.62
X324.587Z62.165
X325.837Z62.73
X327.712Z63.61
X328.962Z64.221
X330.212Z64.854
X332.087Z65.837
X333.337Z66.519
X334.587Z67.224
X336.462Z68.321
X337.712Z69.079
X338.962Z69.86
X340.212Z70.667
X341.462Z71.497
X343.337Z72.79
X344.587Z73.682
X345.837Z74.602
X347.087Z75.55
X348.337Z76.526
X349.587Z77.532
X350.837Z78.568
X352.087Z79.636
X353.337Z80.738
X354.587Z81.874
X355.837Z83.046
X357.087Z84.256
X357.712Z84.874
X358.962Z86.142
X360.212Z87.45
X361.462Z88.806
X362.712Z90.209
X363.337Z90.927
X364.587Z92.403
X365.525Z93.546
X366.462Z94.723
X367.712Z96.343
X368.65Z97.6
X369.587Z98.895
X370.525Z100.232
X371.462Z101.613
X372.087Z102.56
X373.025Z104.019
X373.337Z104.519
X373.863Z105.369
X374.389Z106.241
X374.914Z107.125
X375.44Z108.035
Y75.002
X374.914Z107.126
X374.389Z106.242
X373.863Z105.37
X373.337Z104.519
X373.025Z104.019
X372.087Z102.56
X371.462Z101.613
X370.525Z100.232
X369.587Z98.895
X368.65Z97.6
X367.712Z96.343
X366.462Z94.723
X365.525Z93.546
X364.587Z92.403
X363.337Z90.927
X362.712Z90.209
X361.462Z88.806
X360.212Z87.45
X358.962Z86.142
X357.712Z84.874
X357.087Z84.256
X355.837Z83.046
X354.587Z81.874
X353.337Z80.738
X352.087Z79.636
X350.837Z78.568
X349.587Z77.532
X348.337Z76.526
X347.087Z75.55
X345.837Z74.602
X344.587Z73.682
X343.337Z72.79
X341.462Z71.497
X340.212Z70.667
X338.962Z69.86
X337.712Z69.079
X336.462Z68.321
X334.587Z67.224
X333.337Z66.519
X332.087Z65.837
X330.212Z64.854
X328.962Z64.221
X327.712Z63.61
X325.837Z62.73
X324.587Z62.165
X323.337Z61.62
X321.462Z60.837
X320.212Z60.337
X319.587Z60.096
X318.337Z59.621
X317.087Z59.163
X315.837Z58.726
X313.962Z58.097
X312.712Z57.701
X310.837Z57.134
X309.587Z56.778
X307.712Z56.271
X306.462Z55.954
X304.587Z55.505
X302.712Z55.094
X301.462Z54.837
X299.587Z54.482
X298.337Z54.262
X296.462Z53.962
X295.212Z53.781
X293.337Z53.534
X291.462Z53.323
X290.212Z53.198
X288.337Z53.04
X287.087Z52.952
X285.837Z52.88
X285.212Z52.846
X283.962Z52.795
X282.087Z52.742
X280.212Z52.724
X278.962Z52.728
X277.087Z52.761
X275.212Z52.828
X273.962Z52.889
X272.087Z53.008
X270.837Z53.106
X268.962Z53.278
X267.712Z53.413
X265.837Z53.638
X263.962Z53.899
X262.712Z54.09
X260.837Z54.405
X259.587Z54.634
X257.712Z55.004
X256.462Z55.272
X254.587Z55.698
X252.712Z56.162
X251.462Z56.489
X249.587Z57.012
X248.337Z57.378
X246.462Z57.961
X245.212Z58.368
X243.337Z59.014
X242.087Z59.462
X240.837Z59.931
X239.587Z60.418
X238.962Z60.665
X237.712Z61.176
X235.837Z61.978
X234.587Z62.534
X233.337Z63.112
X231.462Z64.012
X230.212Z64.635
X228.962Z65.281
X227.087Z66.286
X225.837Z66.981
X224.587Z67.7
X223.337Z68.441
X221.462Z69.593
X220.212Z70.39
X218.962Z71.21
X217.712Z72.058
X216.462Z72.93
X215.837Z73.377
X215.212Z73.828
X213.962Z74.753
X212.712Z75.706
X211.462Z76.687
X210.212Z77.698
X208.962Z78.739
X207.712Z79.813
X206.462Z80.919
X205.212Z82.06
X203.962Z83.237
X202.712Z84.451
X201.462Z85.704
X200.212Z87.001
X198.962Z88.342
X198.337Z89.028
X197.087Z90.436
X195.837Z91.896
X194.9Z93.024
X193.962Z94.185
X192.712Z95.786
X192.087Z96.609
X191.462Z97.45
X190.931Z98.172
X178.081Z115.89
X177.087Z117.238
X176.462Z118.063
X175.212Z119.677
X174.587Z120.457
X173.337Z121.985
X172.087Z123.46
X170.837Z124.884
X170.212Z125.58
X168.962Z126.939
X167.712Z128.252
X166.462Z129.525
X165.837Z130.148
X164.587Z131.366
X163.337Z132.547
X162.087Z133.693
X160.837Z134.805
X159.587Z135.886
X158.337Z136.935
X157.087Z137.956
X155.837Z138.947
X154.587Z139.911
X153.337Z140.848
X152.087Z141.759
X150.837Z142.644
X149.587Z143.505
X148.337Z144.342
X147.087Z145.154
X145.837Z145.944
X143.962Z147.088
X142.712Z147.825
X141.462Z148.541
X140.212Z149.234
X138.337Z150.237
X137.087Z150.882
X135.837Z151.509
X134.587Z152.114
X133.337Z152.702
X132.087Z153.271
X131.462Z153.552
X130.212Z154.094
X128.337Z154.876
X127.088Z155.378
X125.838Z155.859
X123.963Z156.554
X122.713Z156.996
X120.838Z157.628
X119.588Z158.031
X118.338Z158.416
X116.463Z158.968
X115.213Z159.315
X113.338Z159.809
X112.088Z160.119
X110.213Z160.558
X108.963Z160.831
X107.088Z161.214
X105.838Z161.451
X103.963Z161.781
X102.088Z162.077
X100.838Z162.26
X99.588Z162.426
X97.713Z162.651
X95.838Z162.843
X94.588Z162.955
X93.338Z163.051
X91.463Z163.174
X89.588Z163.263
X88.338Z163.307
X86.463Z163.346
X85.213Z163.355
X83.338Z163.344
X82.088Z163.318
X80.213Z163.256
X78.338Z163.161
X77.088Z163.083
X75.213Z162.937
X73.338Z162.761
X72.088Z162.628
X70.838Z162.48
X69.588Z162.316
X67.713Z162.048
X65.838Z161.748
X64.588Z161.529
X62.713Z161.175
X61.463Z160.92
X59.588Z160.512
X58.338Z160.221
X56.463Z159.758
X55.213Z159.43
X53.338Z158.91
X52.088Z158.545
X50.213Z157.967
X48.963Z157.563
X47.088Z156.925
X45.838Z156.482
X44.588Z156.02
X42.713Z155.297
X41.463Z154.796
X40.838Z154.535
X39.588Z154.007
X38.338Z153.462
X37.088Z152.9
X35.838Z152.316
X34.588Z151.715
X32.713Z150.781
X31.463Z150.133
X30.213Z149.465
X28.338Z148.426
X27.088Z147.709
X25.838Z146.97
X24.588Z146.208
X23.338Z145.425
X22.088Z144.619
X21.463Z144.208
X20.213Z143.368
X18.963Z142.504
X17.713Z141.615
X16.463Z140.701
X15.213Z139.76
X13.963Z138.792
X12.713Z137.796
X11.463Z136.771
X10.213Z135.716
X8.963Z134.63
X7.713Z133.511
X6.463Z132.359
X5.213Z131.172
X4.588Z130.566
X3.338Z129.326
X2.088Z128.046
X0.838Z126.723
X-0.413Z125.357
X-1.038Z124.661
X-2.288Z123.227
X-2.913Z122.49
X-4.163Z120.985
X-5.413Z119.421
X-6.038Z118.619
X-6.663Z117.799
X-7.1Z117.222
Y70.002
X-6.663Z117.799
X-6.038Z118.619
X-5.413Z119.421
X-4.163Z120.985
X-2.913Z122.49
X-2.288Z123.227
X-1.038Z124.661
X-0.413Z125.357
X0.838Z126.723
X2.088Z128.046
X3.338Z129.326
X4.588Z130.566
X5.213Z131.172
X6.463Z132.359
X7.713Z133.511
X8.963Z134.63
X10.213Z135.716
X11.463Z136.771
X12.713Z137.796
X13.963Z138.792
X15.213Z139.76
X16.463Z140.701
X17.713Z141.615
X18.963Z142.504
X20.213Z143.368
X21.463Z144.208
X22.088Z144.619
X23.338Z145.425
X24.588Z146.208
X25.838Z146.97
X27.088Z147.709
X28.338Z148.426
X30.213Z149.465
X31.463Z150.133
X32.713Z150.781
X34.588Z151.715
X35.838Z152.316
X37.088Z152.9
X38.338Z153.462
X39.588Z154.007
X40.838Z154.535
X41.463Z154.796
X42.713Z155.297
X44.588Z156.02
X45.838Z156.482
X47.088Z156.925
X48.963Z157.563
X50.213Z157.967
X52.088Z158.545
X53.338Z158.91
X55.213Z159.43
X56.463Z159.758
X58.338Z160.221
X59.588Z160.512
X61.463Z160.92
X62.713Z161.175
X64.588Z161.529
X65.838Z161.748
X67.713Z162.048
X69.588Z162.316
X70.838Z162.48
X72.088Z162.628
X73.338Z162.761
X75.213Z162.937
X77.088Z163.083
X78.338Z163.161
X80.213Z163.256
X82.088Z163.318
X83.338Z163.344
X85.213Z163.355
X86.463Z163.346
X88.338Z163.307
X89.588Z163.263
X91.463Z163.174
X93.338Z163.051
X94.588Z162.955
X95.838Z162.843
X97.713Z162.651
X99.588Z162.426
X100.838Z162.26
X102.088Z162.077
X103.963Z161.781
X105.838Z161.451
X107.088Z161.214
X108.963Z160.831
X110.213Z160.558
X112.088Z160.119
X113.338Z159.809
X115.213Z159.315
X116.463Z158.968
X118.338Z158.416
X119.588Z158.031
X120.838Z157.628
X122.713Z156.996
X123.963Z156.554
X125.838Z155.859
X127.088Z155.378
X128.337Z154.876
X130.212Z154.094
X131.462Z153.552
X132.087Z153.271
X133.337Z152.702
X134.587Z152.114
X135.837Z151.509
X137.087Z150.882
X138.337Z150.237
X140.212Z149.234
X141.462Z148.541
X142.712Z147.825
X143.962Z147.088
X145.837Z145.944
X147.087Z145.154
X148.337Z144.342
X149.587Z143.505
X150.837Z142.644
X152.087Z141.759
X153.337Z140.848
X154.587Z139.911
X155.837Z138.947
X157.087Z137.956
X158.337Z136.935
X159.587Z135.886
X160.837Z134.805
X162.087Z133.693
X163.337Z132.547
X164.587Z131.366
X165.837Z130.148
X166.462Z129.525
X167.712Z128.252
X168.962Z126.939
X170.212Z125.58
X170.837Z124.884
X172.087Z123.46
X173.337Z121.985
X174.587Z120.457
X175.212Z119.677
X176.462Z118.063
X177.087Z117.238
X178.081Z115.89
X190.931Z98.172
X191.462Z97.45
X192.087Z96.609
X192.712Z95.786
X193.962Z94.185
X194.9Z93.024
X195.837Z91.896
X197.087Z90.436
X198.337Z89.028
X198.962Z88.342
X200.212Z87.001
X201.462Z85.704
X202.712Z84.451
X203.962Z83.237
X205.212Z82.06
X206.462Z80.919
X207.712Z79.813
X208.962Z78.739
X210.212Z77.698
X211.462Z76.687
X212.712Z75.706
X213.962Z74.753
X215.212Z73.828
X215.837Z73.377
X216.462Z72.93
X217.712Z72.058
X218.962Z71.21
X220.212Z70.39
X221.462Z69.593
X223.337Z68.441
X224.587Z67.7
X225.837Z66.981
X227.087Z66.286
X228.962Z65.281
X230.212Z64.635
X231.462Z64.012
X233.337Z63.112
X234.587Z62.534
X235.837Z61.978
X237.712Z61.176
X238.962Z60.665
X239.587Z60.418
X240.837Z59.931
X242.087Z59.462
X243.337Z59.014
X245.212Z58.368
X246.462Z57.961
X248.337Z57.378
X249.587Z57.012
X251.462Z56.489
X252.712Z56.162
X254.587Z55.698
X256.462Z55.272
X257.712Z55.004
X259.587Z54.634
X260.837Z54.405
X262.712Z54.09
X263.962Z53.899
X265.837Z53.638
X267.712Z53.413
X268.962Z53.278
X270.837Z53.106
X272.087Z53.008
X273.962Z52.889
X275.212Z52.828
X277.087Z52.761
X278.962Z52.728
X280.212Z52.724
X282.087Z52.742
X283.962Z52.795
X285.212Z52.846
X285.837Z52.88
X287.087Z52.952
X288.337Z53.04
X290.212Z53.198
X291.462Z53.323
X293.337Z53.534
X295.212Z53.781
X296.462Z53.962
X298.337Z54.262
X299.587Z54.482
X301.462Z54.837
X302.712Z55.094
X304.587Z55.505
X306.462Z55.954
X307.712Z56.271
X309.587Z56.778
X310.837Z57.134
X312.712Z57.701
X313.962Z58.097
X315.837Z58.726
X317.087Z59.163
X318.337Z59.621
X319.587Z60.096
X320.212Z60.337
X321.462Z60.837
X323.337Z61.62
X324.587Z62.165
X325.837Z62.73
X327.712Z63.61
X328.962Z64.221
X330.212Z64.854
X332.087Z65.837
X333.337Z66.519
X334.587Z67.224
X336.462Z68.321
X337.712Z69.079
X338.962Z69.86
X340.212Z70.667
X341.462Z71.497
X343.337Z72.79
X344.587Z73.682
X345.837Z74.602
X347.087Z75.55
X348.337Z76.526
X349.587Z77.532
X350.837Z78.568
X352.087Z79.636
X353.337Z80.738
X354.587Z81.874
X355.837Z83.046
X357.087Z84.256
X357.712Z84.874
X358.962Z86.142
X360.212Z87.45
X361.462Z88.806
X362.712Z90.209
X363.337Z90.927
X364.587Z92.403
X365.525Z93.546
X366.462Z94.723
X367.712Z96.343
X368.65Z97.6
X369.587Z98.895
X370.525Z100.232
X371.462Z101.613
X372.087Z102.56
X373.025Z104.019
X373.337Z104.519
X373.863Z105.37
X374.389Z106.242
X374.915Z107.126
X375.44Z108.036
X375.441Y65.002
X374.915Z107.126
X374.389Z106.242
X373.863Z105.37
X373.337Z104.519
X373.025Z104.019
X372.087Z102.56
X371.462Z101.613
X370.525Z100.232
X369.587Z98.895
X368.65Z97.6
X367.712Z96.343
X366.462Z94.723
X365.525Z93.546
X364.587Z92.403
X363.337Z90.927
X362.712Z90.209
X361.462Z88.806
X360.212Z87.45
X358.962Z86.142
X357.712Z84.874
X357.087Z84.256
X355.837Z83.046
X354.587Z81.874
X353.337Z80.738
X352.087Z79.636
X350.837Z78.568
X349.587Z77.532
X348.337Z76.526
X347.087Z75.55
X345.837Z74.602
X344.587Z73.682
X343.337Z72.79
X341.462Z71.497
X340.212Z70.667
X338.962Z69.86
X337.712Z69.079
X336.462Z68.321
X334.587Z67.224
X333.337Z66.519
X332.087Z65.837
X330.212Z64.854
X328.962Z64.221
X327.712Z63.61
X325.837Z62.73
X324.587Z62.165
X323.337Z61.62
X321.462Z60.837
X320.212Z60.337
X319.587Z60.096
X318.337Z59.621
X317.087Z59.163
X315.837Z58.726
X313.962Z58.097
X312.712Z57.701
X310.837Z57.134
X309.587Z56.778
X307.712Z56.271
X306.462Z55.954
X304.587Z55.505
X302.712Z55.094
X301.462Z54.837
X299.587Z54.482
X298.337Z54.262
X296.462Z53.962
X295.212Z53.781
X293.337Z53.534
X291.462Z53.323
X290.212Z53.198
X288.337Z53.04
X287.087Z52.952
X285.837Z52.88
X285.212Z52.846
X283.962Z52.795
X282.087Z52.742
X280.212Z52.724
X278.962Z52.728
X277.087Z52.761
X275.212Z52.828
X273.962Z52.889
X272.087Z53.008
X270.837Z53.106
X268.962Z53.278
X267.712Z53.413
X265.837Z53.638
X263.962Z53.899
X262.712Z54.09
X260.837Z54.405
X259.587Z54.634
X257.712Z55.004
X256.462Z55.272
X254.587Z55.698
X252.712Z56.162
X251.462Z56.489
X249.587Z57.012
X248.337Z57.378
X246.462Z57.961
X245.212Z58.368
X243.337Z59.014
X242.087Z59.462
X240.837Z59.931
X239.587Z60.418
X238.962Z60.665
X237.712Z61.176
X235.837Z61.978
X234.587Z62.534
X233.337Z63.112
X231.462Z64.012
X230.212Z64.635
X228.962Z65.281
X227.087Z66.286
X225.837Z66.981
X224.587Z67.7
X223.337Z68.441
X221.462Z69.593
X220.212Z70.39
X218.962Z71.21
X217.712Z72.058
X216.462Z72.93
X215.837Z73.377
X215.212Z73.828
X213.962Z74.753
X212.712Z75.706
X211.462Z76.687
X210.212Z77.698
X208.962Z78.739
X207.712Z79.813
X206.462Z80.919
X205.212Z82.06
X203.962Z83.237
X202.712Z84.451
X201.462Z85.704
X200.212Z87.001
X198.962Z88.342
X198.337Z89.028
X197.087Z90.436
X195.837Z91.896
X194.9Z93.024
X193.962Z94.185
X192.712Z95.786
X192.087Z96.609
X191.462Z97.45
X190.931Z98.172
X178.081Z115.89
X177.087Z117.238
X176.462Z118.063
X175.212Z119.677
X174.587Z120.457
X173.337Z121.985
X172.087Z123.46
X170.837Z124.884
X170.212Z125.58
X168.962Z126.939
X167.712Z128.252
X166.462Z129.525
X165.837Z130.148
X164.587Z131.366
X163.337Z132.547
X162.087Z133.693
X160.837Z134.805
X159.587Z135.886
X158.337Z136.935
X157.087Z137.956
X155.837Z138.947
X154.587Z139.911
X153.337Z140.848
X152.087Z141.759
X150.837Z142.644
X149.587Z143.505
X148.337Z144.342
X147.087Z145.154
X145.837Z145.944
X143.962Z147.088
X142.712Z147.825
X141.462Z148.541
X140.212Z149.234
X138.337Z150.237
X137.087Z150.882
X135.837Z151.509
X134.587Z152.114
X133.337Z152.702
X132.087Z153.271
X131.462Z153.552
X130.212Z154.094
X128.337Z154.876
X127.088Z155.378
X125.838Z155.859
X123.963Z156.554
X122.713Z156.996
X120.838Z157.628
X119.588Z158.031
X118.338Z158.416
X116.463Z158.968
X115.213Z159.315
X113.338Z159.809
X112.088Z160.119
X110.213Z160.558
X108.963Z160.831
X107.088Z161.214
X105.838Z161.451
X103.963Z161.781
X102.088Z162.077
X100.838Z162.26
X99.588Z162.426
X97.713Z162.651
X95.838Z162.843
X94.588Z162.955
X93.338Z163.051
X91.463Z163.174
X89.588Z163.263
X88.338Z163.307
X86.463Z163.346
X85.213Z163.355
X83.338Z163.344
X82.088Z163.318
X80.213Z163.256
X78.338Z163.161
X77.088Z163.083
X75.213Z162.937
X73.338Z162.761
X72.088Z162.628
X70.838Z162.48
X69.588Z162.316
X67.713Z162.048
X65.838Z161.748
X64.588Z161.529
X62.713Z161.175
X61.463Z160.92
X59.588Z160.512
X58.338Z160.221
X56.463Z159.758
X55.213Z159.43
X53.338Z158.91
X52.088Z158.545
X50.213Z157.967
X48.963Z157.563
X47.088Z156.925
X45.838Z156.482
X44.588Z156.02
X42.713Z155.297
X41.463Z154.796
X40.838Z154.535
X39.588Z154.007
X38.338Z153.462
X37.088Z152.9
X35.838Z152.316
X34.588Z151.715
X32.713Z150.781
X31.463Z150.133
X30.213Z149.465
X28.338Z148.426
X27.088Z147.709
X25.838Z146.97
X24.588Z146.208
X23.338Z145.425
X22.088Z144.619
X21.463Z144.208
X20.213Z143.368
X18.963Z142.504
X17.713Z141.615
X16.463Z140.701
X15.213Z139.76
X13.963Z138.792
X12.713Z137.796
X11.463Z136.771
X10.213Z135.716
X8.963Z134.63
X7.713Z133.511
X6.463Z132.359
X5.213Z131.172
X4.588Z130.566
X3.338Z129.326
X2.088Z128.046
X0.838Z126.723
X-0.413Z125.357
X-1.038Z124.661
X-2.288Z123.227
X-2.913Z122.49
X-4.163Z120.985
X-5.413Z119.421
X-6.038Z118.619
X-6.663Z117.799
X-7.1Z117.222
Y60.002
X-6.663Z117.799
X-6.038Z118.619
X-5.413Z119.421
X-4.163Z120.985
X-2.913Z122.49
X-2.288Z123.227
X-1.038Z124.661
X-0.413Z125.357
X0.838Z126.723
X2.088Z128.046
X3.338Z129.326
X4.588Z130.566
X5.213Z131.172
X6.463Z132.359
X7.713Z133.511
X8.963Z134.63
X10.213Z135.716
X11.463Z136.771
X12.713Z137.796
X13.963Z138.792
X15.213Z139.76
X16.463Z140.701
X17.713Z141.615
X18.963Z142.504
X20.213Z143.368
X21.463Z144.208
X22.088Z144.619
X23.338Z145.425
X24.588Z146.208
X25.838Z146.97
X27.088Z147.709
X28.338Z148.426
X30.213Z149.465
X31.463Z150.133
X32.713Z150.781
X34.588Z151.715
X35.838Z152.316
X37.088Z152.9
X38.338Z153.462
X39.588Z154.007
X40.838Z154.535
X41.463Z154.796
X42.713Z155.297
X44.588Z156.02
X45.838Z156.482
X47.088Z156.925
X48.963Z157.563
X50.213Z157.967
X52.088Z158.545
X53.338Z158.91
X55.213Z159.43
X56.463Z159.758
X58.338Z160.221
X59.588Z160.512
X61.463Z160.92
X62.713Z161.175
X64.588Z161.529
X65.838Z161.748
X67.713Z162.048
X69.588Z162.316
X70.838Z162.48
X72.088Z162.628
X73.338Z162.761
X75.213Z162.937
X77.088Z163.083
X78.338Z163.161
X80.213Z163.256
X82.088Z163.318
X83.338Z163.344
X85.213Z163.355
X86.463Z163.346
X88.338Z163.307
X89.588Z163.263
X91.463Z163.174
X93.338Z163.051
X94.588Z162.955
X95.838Z162.843
X97.713Z162.651
X99.588Z162.426
X100.838Z162.26
X102.088Z162.077
X103.963Z161.781
X105.838Z161.451
X107.088Z161.214
X108.963Z160.831
X110.213Z160.558
X112.088Z160.119
X113.338Z159.809
X115.213Z159.315
X116.463Z158.968
X118.338Z158.416
X119.588Z158.031
X120.838Z157.628
X122.713Z156.996
X123.963Z156.554
X125.838Z155.859
X127.088Z155.378
X128.337Z154.876
X130.212Z154.094
X131.462Z153.552
X132.087Z153.271
X133.337Z152.702
X134.587Z152.114
X135.837Z151.509
X137.087Z150.882
X138.337Z150.237
X140.212Z149.234
X141.462Z148.541
X142.712Z147.825
X143.962Z147.088
X145.837Z145.944
X147.087Z145.154
X148.337Z144.342
X149.587Z143.505
X150.837Z142.644
X152.087Z141.759
X153.337Z140.848
X154.587Z139.911
X155.837Z138.947
X157.087Z137.956
X158.337Z136.935
X159.587Z135.886
X160.837Z134.805
X162.087Z133.693
X163.337Z132.547
X164.587Z131.366
X165.837Z130.148
X166.462Z129.525
X167.712Z128.252
X168.962Z126.939
X170.212Z125.58
X170.837Z124.884
X172.087Z123.46
X173.337Z121.985
X174.587Z120.457
X175.212Z119.677
X176.462Z118.063
X177.087Z117.238
X178.081Z115.89
X190.931Z98.172
X191.462Z97.45
X192.087Z96.609
X192.712Z95.786
X193.962Z94.185
X194.9Z93.024
X195.837Z91.896
X197.087Z90.436
X198.337Z89.028
X198.962Z88.342
X200.212Z87.001
X201.462Z85.704
X202.712Z84.451
X203.962Z83.237
X205.212Z82.06
X206.462Z80.919
X207.712Z79.813
X208.962Z78.739
X210.212Z77.698
X211.462Z76.687
X212.712Z75.706
X213.962Z74.753
X215.212Z73.828
X215.837Z73.377
X216.462Z72.93
X217.712Z72.058
X218.962Z71.21
X220.212Z70.39
X221.462Z69.593
X223.337Z68.441
X224.587Z67.7
X225.837Z66.981
X227.087Z66.286
X228.962Z65.281
X230.212Z64.635
X231.462Z64.012
X233.337Z63.112
X234.587Z62.534
X235.837Z61.978
X237.712Z61.176
X238.962Z60.665
X239.587Z60.418
X240.837Z59.931
X242.087Z59.462
X243.337Z59.014
X245.212Z58.368
X246.462Z57.961
X248.337Z57.378
X249.587Z57.012
X251.462Z56.489
X252.712Z56.162
X254.587Z55.698
X256.462Z55.272
X257.712Z55.004
X259.587Z54.634
X260.837Z54.405
X262.712Z54.09
X263.962Z53.899
X265.837Z53.638
X267.712Z53.413
X268.962Z53.278
X270.837Z53.106
X272.087Z53.008
X273.962Z52.889
X275.212Z52.828
X277.087Z52.761
X278.962Z52.728
X280.212Z52.724
X282.087Z52.742
X283.962Z52.795
X285.212Z52.846
X285.837Z52.88
X287.087Z52.952
X288.337Z53.04
X290.212Z53.198
X291.462Z53.323
X293.337Z53.534
X295.212Z53.781
X296.462Z53.962
X298.337Z54.262
X299.587Z54.482
X301.462Z54.837
X302.712Z55.094
X304.587Z55.505
X306.462Z55.954
X307.712Z56.271
X309.587Z56.778
X310.837Z57.134
X312.712Z57.701
X313.962Z58.097
X315.837Z58.726
X317.087Z59.163
X318.337Z59.621
X319.587Z60.096
X320.212Z60.337
X321.462Z60.837
X323.337Z61.62
X324.587Z62.165
X325.837Z62.73
X327.712Z63.61
X328.962Z64.221
X330.212Z64.854
X332.087Z65.837
X333.337Z66.519
X334.587Z67.224
X336.462Z68.321
X337.712Z69.079
X338.962Z69.86
X340.212Z70.667
X341.462Z71.497
X343.337Z72.79
X344.587Z73.682
X345.837Z74.602
X347.087Z75.55
X348.337Z76.526
X349.587Z77.532
X350.837Z78.568
X352.087Z79.636
X353.337Z80.738
X354.587Z81.874
X355.837Z83.046
X357.087Z84.256
X357.712Z84.874
X358.962Z86.142
X360.212Z87.45
X361.462Z88.806
X362.712Z90.209
X363.337Z90.927
X364.587Z92.403
X365.525Z93.546
X366.462Z94.723
X367.712Z96.343
X368.65Z97.6
X369.587Z98.895
X370.525Z100.232
X371.462Z101.613
X372.087Z102.56
X373.025Z104.019
X373.337Z104.519
X373.863Z105.37
X374.389Z106.242
X374.915Z107.127
X375.441Z108.037
Y55.002
X374.915Z107.127
X374.389Z106.242
X373.863Z105.37
X373.337Z104.519
X373.025Z104.019
X372.087Z102.56
X371.462Z101.613
X370.525Z100.232
X369.587Z98.895
X368.65Z97.6
X367.712Z96.343
X366.462Z94.723
X365.525Z93.546
X364.587Z92.403
X363.337Z90.927
X362.712Z90.209
X361.462Z88.806
X360.212Z87.45
X358.962Z86.142
X357.712Z84.874
X357.087Z84.256
X355.837Z83.046
X354.587Z81.874
X353.337Z80.738
X352.087Z79.636
X350.837Z78.568
X349.587Z77.532
X348.337Z76.526
X347.087Z75.55
X345.837Z74.602
X344.587Z73.682
X343.337Z72.79
X341.462Z71.497
X340.212Z70.667
X338.962Z69.86
X337.712Z69.079
X336.462Z68.321
X334.587Z67.224
X333.337Z66.519
X332.087Z65.837
X330.212Z64.854
X328.962Z64.221
X327.712Z63.61
X325.837Z62.73
X324.587Z62.165
X323.337Z61.62
X321.462Z60.837
X320.212Z60.337
X319.587Z60.096
X318.337Z59.621
X317.087Z59.163
X315.837Z58.726
X313.962Z58.097
X312.712Z57.701
X310.837Z57.134
X309.587Z56.778
X307.712Z56.271
X306.462Z55.954
X304.587Z55.505
X302.712Z55.094
X301.462Z54.837
X299.587Z54.482
X298.337Z54.262
X296.462Z53.962
X295.212Z53.781
X293.337Z53.534
X291.462Z53.323
X290.212Z53.198
X288.337Z53.04
X287.087Z52.952
X285.837Z52.88
X285.212Z52.846
X283.962Z52.795
X282.087Z52.742
X280.212Z52.724
X278.962Z52.728
X277.087Z52.761
X275.212Z52.828
X273.962Z52.889
X272.087Z53.008
X270.837Z53.106
X268.962Z53.278
X267.712Z53.413
X265.837Z53.638
X263.962Z53.899
X262.712Z54.09
X260.837Z54.405
X259.587Z54.634
X257.712Z55.004
X256.462Z55.272
X254.587Z55.698
X252.712Z56.162
X251.462Z56.489
X249.587Z57.012
X248.337Z57.378
X246.462Z57.961
X245.212Z58.368
X243.337Z59.014
X242.087Z59.462
X240.837Z59.931
X239.587Z60.418
X238.962Z60.665
X237.712Z61.176
X235.837Z61.978
X234.587Z62.534
X233.337Z63.112
X231.462Z64.012
X230.212Z64.635
X228.962Z65.281
X227.087Z66.286
X225.837Z66.981
X224.587Z67.7
X223.337Z68.441
X221.462Z69.593
X220.212Z70.39
X218.962Z71.21
X217.712Z72.058
X216.462Z72.93
X215.837Z73.377
X215.212Z73.828
X213.962Z74.753
X212.712Z75.706
X211.462Z76.687
X210.212Z77.698
X208.962Z78.739
X207.712Z79.813
X206.462Z80.919
X205.212Z82.06
X203.962Z83.237
X202.712Z84.451
X201.462Z85.704
X200.212Z87.001
X198.962Z88.342
X198.337Z89.028
X197.087Z90.436
X195.837Z91.896
X194.9Z93.024
X193.962Z94.185
X192.712Z95.786
X192.087Z96.609
X191.462Z97.45
X190.931Z98.172
X178.081Z115.89
X177.087Z117.238
X176.462Z118.063
X175.212Z119.677
X174.587Z120.457
X173.337Z121.985
X172.087Z123.46
X170.837Z124.884
X170.212Z125.58
X168.962Z126.939
X167.712Z128.252
X166.462Z129.525
X165.837Z130.148
X164.587Z131.366
X163.337Z132.547
X162.087Z133.693
X160.837Z134.805
X159.587Z135.886
X158.337Z136.935
X157.087Z137.956
X155.837Z138.947
X154.587Z139.911
X153.337Z140.848
X152.087Z141.759
X150.837Z142.644
X149.587Z143.505
X148.337Z144.342
X147.087Z145.154
X145.837Z145.944
X143.962Z147.088
X142.712Z147.825
X141.462Z148.541
X140.212Z149.234
X138.337Z150.237
X137.087Z150.882
X135.837Z151.509
X134.587Z152.114
X133.337Z152.702
X132.087Z153.271
X131.462Z153.552
X130.212Z154.094
X128.337Z154.876
X127.088Z155.378
X125.838Z155.859
X123.963Z156.554
X122.713Z156.996
X120.838Z157.628
X119.588Z158.031
X118.338Z158.416
X116.463Z158.968
X115.213Z159.315
X113.338Z159.809
X112.088Z160.119
X110.213Z160.558
X108.963Z160.831
X107.088Z161.214
X105.838Z161.451
X103.963Z161.781
X102.088Z162.077
X100.838Z162.26
X99.588Z162.426
X97.713Z162.651
X95.838Z162.843
X94.588Z162.955
X93.338Z163.051
X91.463Z163.174
X89.588Z163.263
X88.338Z163.307
X86.463Z163.346
X85.213Z163.355
X83.338Z163.344
X82.088Z163.318
X80.213Z163.256
X78.338Z163.161
X77.088Z163.083
X75.213Z162.937
X73.338Z162.761
X72.088Z162.628
X70.838Z162.48
X69.588Z162.316
X67.713Z162.048
X65.838Z161.748
X64.588Z161.529
X62.713Z161.175
X61.463Z160.92
X59.588Z160.512
X58.338Z160.221
X56.463Z159.758
X55.213Z159.43
X53.338Z158.91
X52.088Z158.545
X50.213Z157.967
X48.963Z157.563
X47.088Z156.925
X45.838Z156.482
X44.588Z156.02
X42.713Z155.297
X41.463Z154.796
X40.838Z154.535
X39.588Z154.007
X38.338Z153.462
X37.088Z152.9
X35.838Z152.316
X34.588Z151.715
X32.713Z150.781
X31.463Z150.133
X30.213Z149.465
X28.338Z148.426
X27.088Z147.709
X25.838Z146.97
X24.588Z146.208
X23.338Z145.425
X22.088Z144.619
X21.463Z144.208
X20.213Z143.368
X18.963Z142.504
X17.713Z141.615
X16.463Z140.701
X15.213Z139.76
X13.963Z138.792
X12.713Z137.796
X11.463Z136.771
X10.213Z135.716
X8.963Z134.63
X7.713Z133.511
X6.463Z132.359
X5.213Z131.172
X4.588Z130.566
X3.338Z129.326
X2.088Z128.046
X0.838Z126.723
X-0.413Z125.357
X-1.038Z124.661
X-2.288Z123.227
X-2.913Z122.49
X-4.163Z120.985
X-5.413Z119.421
X-6.038Z118.619
X-6.663Z117.799
X-7.1Z117.222
Y50.002
X-6.663Z117.799
X-6.038Z118.619
X-5.413Z119.421
X-4.163Z120.985
X-2.913Z122.49
X-2.288Z123.227
X-1.038Z124.661
X-0.413Z125.357
X0.838Z126.723
X2.088Z128.046
X3.338Z129.326
X4.588Z130.566
X5.213Z131.172
X6.463Z132.359
X7.713Z133.511
X8.963Z134.63
X10.213Z135.716
X11.463Z136.771
X12.713Z137.796
X13.963Z138.792
X15.213Z139.76
X16.463Z140.701
X17.713Z141.615
X18.963Z142.504
X20.213Z143.368
X21.463Z144.208
X22.088Z144.619
X23.338Z145.425
X24.588Z146.208
X25.838Z146.97
X27.088Z147.709
X28.338Z148.426
X30.213Z149.465
X31.463Z150.133
X32.713Z150.781
X34.588Z151.715
X35.838Z152.316
X37.088Z152.9
X38.338Z153.462
X39.588Z154.007
X40.838Z154.535
X41.463Z154.796
X42.713Z155.297
X44.588Z156.02
X45.838Z156.482
X47.088Z156.925
X48.963Z157.563
X50.213Z157.967
X52.088Z158.545
X53.338Z158.91
X55.213Z159.43
X56.463Z159.758
X58.338Z160.221
X59.588Z160.512
X61.463Z160.92
X62.713Z161.175
X64.588Z161.529
X65.838Z161.748
X67.713Z162.048
X69.588Z162.316
X70.838Z162.48
X72.088Z162.628
X73.338Z162.761
X75.213Z162.937
X77.088Z163.083
X78.338Z163.161
X80.213Z163.256
X82.088Z163.318
X83.338Z163.344
X85.213Z163.355
X86.463Z163.346
X88.338Z163.307
X89.588Z163.263
X91.463Z163.174
X93.338Z163.051
X94.588Z162.955
X95.838Z162.843
X97.713Z162.651
X99.588Z162.426
X100.838Z162.26
X102.088Z162.077
X103.963Z161.781
X105.838Z161.451
X107.088Z161.214
X108.963Z160.831
X110.213Z160.558
X112.088Z160.119
X113.338Z159.809
X115.213Z159.315
X116.463Z158.968
X118.338Z158.416
X119.588Z158.031
X120.838Z157.628
X122.713Z156.996
X123.963Z156.554
X125.838Z155.859
X127.088Z155.378
X128.337Z154.876
X130.212Z154.094
X131.462Z153.552
X132.087Z153.271
X133.337Z152.702
X134.587Z152.114
X135.837Z151.509
X137.087Z150.882
X138.337Z150.237
X140.212Z149.234
X141.462Z148.541
X142.712Z147.825
X143.962Z147.088
X145.837Z145.944
X147.087Z145.154
X148.337Z144.342
X149.587Z143.505
X150.837Z142.644
X152.087Z141.759
X153.337Z140.848
X154.587Z139.911
X155.837Z138.947
X157.087Z137.956
X158.337Z136.935
X159.587Z135.886
X160.837Z134.805
X162.087Z133.693
X163.337Z132.547
X164.587Z131.366
X165.837Z130.148
X166.462Z129.525
X167.712Z128.252
X168.962Z126.939
X170.212Z125.58
X170.837Z124.884
X172.087Z123.46
X173.337Z121.985
X174.587Z120.457
X175.212Z119.677
X176.462Z118.063
X177.087Z117.238
X178.081Z115.89
X190.931Z98.172
X191.462Z97.45
X192.087Z96.609
X192.712Z95.786
X193.962Z94.185
X194.9Z93.024
X195.837Z91.896
X197.087Z90.436
X198.337Z89.028
X198.962Z88.342
X200.212Z87.001
X201.462Z85.704
X202.712Z84.451
X203.962Z83.237
X205.212Z82.06
X206.462Z80.919
X207.712Z79.813
X208.962Z78.739
X210.212Z77.698
X211.462Z76.687
X212.712Z75.706
X213.962Z74.753
X215.212Z73.828
X215.837Z73.377
