%
O2222
(** EgPost **)
T99
(*** CLEANUP  ***)
T01
(** B20 **)
G54G00
G80G91G40G28Z0
G49G28X0Y0M05
M06
T01
G90G00X0.Y0.
G43Z200.H01
M03S1000
G00X-16.315Y150.002
Z114.338 
G01Z113.338F105
X-15.881Z113.293
X-15.445Z113.267
X-15.009Z113.26
X-14.573Z113.272
X-14.138Z113.304
X-13.704Z113.354
X-13.274Z113.423
X-12.846Z113.511
X-12.423Z113.617
X-12.005Z113.742
X-11.593Z113.884
X-11.187Z114.045
X-10.789Z114.223
X-10.399Z114.419
X-10.018Z114.631
X-9.646Z114.86
X-9.285Z115.104
G18G02X-7.371Z116.88I-5.79K8.16
G01X-7.1Z117.222
X-6.663Z117.799F350
G03X178.081Z115.89I91.664K-69.446
G01X190.931Z98.172
G02X375.436Z108.028I89.067K64.554
G01Y145.002Z108.029
G03X190.931Z98.172I-95.438K54.697
G01X178.081Z115.89
G02X-7.1Z117.222I-93.081K-67.54
G01Y140.002
G03X178.081Z115.89I92.1K-68.872
G01X190.931Z98.172
G02X375.437Z108.029I89.067K64.554
G01Y135.002Z108.03
G03X190.931Z98.172I-95.439K54.696
G01X178.081Z115.89
G02X-7.1Z117.222I-93.081K-67.54
G01Y130.002
G03X178.081Z115.89I92.1K-68.872
G01X190.931Z98.172
G02X375.437Z108.03I89.067K64.554
G01X375.438Y125.002Z108.031
G03X190.931Z98.172I-95.44K54.695
G01X178.081Z115.89
G02X-7.1Z117.222I-93.081K-67.54
G01Y120.002
G03X178.081Z115.89I92.1K-68.872
G01X190.931Z98.172
G02X375.438Z108.031I89.067K64.554
G01Y115.002Z108.032
G03X190.931Z98.172I-95.44K54.694
G01X178.081Z115.89
G02X-7.1Z117.222I-93.081K-67.54
G01Y110.002
G03X178.081Z115.89I92.1K-68.872
G01X190.931Z98.172
G02X375.438Z108.032I89.067K64.554
G01X375.439Y105.002Z108.033
G03X190.931Z98.172I-95.441K54.693
G01X178.081Z115.89
G02X-7.1Z117.222I-93.081K-67.54
G01Y100.002
G03X178.081Z115.89I92.1K-68.872
G01X190.931Z98.172
G02X375.439Z108.033I89.067K64.554
G01Y95.002Z108.034
G03X190.931Z98.172I-95.441K54.692
G01X178.081Z115.89
G02X-7.1Z117.222I-93.081K-67.54
G01Y90.002
G03X178.081Z115.89I92.1K-68.872
G01X190.931Z98.172
G02X375.439Z108.034I89.067K64.554
G01X375.44Y85.002
G03X190.931Z98.172I-95.441K54.692
G01X178.081Z115.89
G02X-7.1Z117.222I-93.081K-67.54
G01Y80.002
G03X178.081Z115.89I92.1K-68.872
G01X190.931Z98.172
G02X375.44Z108.035I89.067K64.554
G01Y75.002
G03X190.931Z98.172I-95.442K54.691
G01X178.081Z115.89
G02X-7.1Z117.222I-93.081K-67.54
G01Y70.002
G03X178.081Z115.89I92.1K-68.872
G01X190.931Z98.172
G02X375.44Z108.036I89.067K64.554
G01X375.441Y65.002
G03X190.931Z98.172I-95.443K54.69
G01X178.081Z115.89
G02X-7.1Z117.222I-93.081K-67.54
G01Y60.002
G03X178.081Z115.89I92.1K-68.872
G01X190.931Z98.172
G02X375.441Z108.037I89.067K64.554
G01Y55.002
G03X190.931Z98.172I-95.443K54.689
G01X178.081Z115.89
G02X-7.1Z117.222I-93.081K-67.54
G01Y50.002
G03X178.081Z115.89I92.1K-68.872
G01X190.931Z98.172
G02X375.442Z108.038I89.067K64.554
G01Y45.002
G03X190.931Z98.172I-95.444K54.688
G01X178.081Z115.89
G02X-7.1Z117.222I-93.081K-67.54
G01Y40.002
G03X178.081Z115.89I92.1K-68.872
G01X190.931Z98.172
G02X375.442Z108.039I89.067K64.554
G01Y35.002
G03X190.931Z98.172I-95.444K54.687
G01X178.081Z115.89
G02X-7.1Z117.222I-93.081K-67.54
G01Y30.002
G03X178.081Z115.89I92.1K-68.872
G01X190.931Z98.172
G02X375.443Z108.04I89.067K64.554
G01Y25.002
G03X190.931Z98.172I-95.445K54.686
G01X178.081Z115.89
G02X-7.1Z117.222I-93.081K-67.54
G01Y20.002
G03X178.081Z115.89I92.1K-68.872
G01X190.931Z98.172
G02X375.443Z108.04I89.067K64.554
G01Y15.002Z108.041
G03X190.931Z98.172I-95.445K54.685
G01X178.081Z115.89
G02X-7.1Z117.222I-93.081K-67.54
G01Y10.002
G03X178.081Z115.89I92.1K-68.872
G01X190.931Z98.172
G02X375.444Z108.041I89.067K64.555
G01Y5.002Z108.042
G03X190.931Z98.172I-95.446K54.684
G01X178.081Z115.89
G02X-7.1Z117.222I-93.081K-67.54
G01Y0.002
G03X178.081Z115.89I92.1K-68.872
G01X190.931Z98.172
G02X375.444Z108.042I89.067K64.554
G01X375.654Z108.425F105
G02X375.658Z117.66I-8.871K4.621
G01X375.448Z118.042
G00 Z200.
G00 Z200.

(** End Of Tape **)
G80G91G28Z0
G49G28X0Y0M05
M06
G90
M30
%
